;FLAVOR:Marlin
;TIME:1631
;Filament used: 1.97165m
;Layer height: 0.2
;MINX:88.6
;MINY:68.447
;MINZ:0.2
;MAXX:121.4
;MAXY:141.665
;MAXZ:18.4
;Generated with Cura_SteamEngine main
M140 S60
M105
M190 S60
M104 S200
M105
M109 S200
M82 ;absolute extrusion mode
G21 ;metric values
G90 ;absolute positioning
M82 ;set extruder to absolute mode
M107 ;start with the fan off
G28 X0 Y0 ;move X/Y to min endstops
G28 Z0 ;move Z to min endstops
G1 Z15.0 F100 ;move the platform down 15mm
G92 E0 ;zero the extruded length
G1 F200 E3 ;extrude 3mm of feed stock
G92 E0 ;zero the extruded length again
G1 F100
G0 Y20 F100
M117 Printing...
G5
G92 E0
G92 E0
G1 F2400 E-6
;LAYER_COUNT:92
;LAYER:0
M107
M204 S3000
M205 X10 Y10
G1 F600 Z0.275
G0 F3000 X96.649 Y72.635 Z0.275
M204 S1800
M205 X8 Y8
;TYPE:SKIRT
G1 F600 Z0.2
G1 F2400 E0
G1 X97.343 Y71.821 E0.04981
G1 X98.076 Y71.09 E0.09801
G1 X98.497 Y70.733 E0.12372
G1 X99.2 Y70.215 E0.16438
G1 X99.673 Y69.914 E0.19048
G1 X100.49 Y69.473 E0.23371
G1 X101.014 Y69.238 E0.26046
G1 X101.863 Y68.928 E0.30254
G1 X102.398 Y68.774 E0.32846
G1 X103.269 Y68.587 E0.36995
G1 X103.812 Y68.51 E0.39548
G1 X104.711 Y68.447 E0.43745
G1 X105.284 Y68.447 E0.46413
G1 X106.178 Y68.51 E0.50586
G1 X106.724 Y68.587 E0.53154
G1 X107.603 Y68.774 E0.57338
G1 X108.158 Y68.934 E0.60028
G1 X109.027 Y69.255 E0.64341
G1 X109.53 Y69.483 E0.66913
G1 X110.303 Y69.899 E0.71001
G1 X110.777 Y70.198 E0.7361
G1 X111.463 Y70.69 E0.77541
G1 X111.999 Y71.153 E0.80839
G1 X112.542 Y71.688 E0.84389
G1 X112.973 Y72.182 E0.87441
G1 X113.851 Y73.277 E0.93977
G1 X119.688 Y80.865 E1.38554
G1 X120.115 Y81.437 E1.41878
G1 X120.51 Y82.034 E1.45211
G1 X120.836 Y82.67 E1.48539
G1 X121.089 Y83.339 E1.51869
G1 X121.266 Y84.032 E1.552
G1 X121.38 Y84.858 E1.59083
G1 X121.4 Y86.102 E1.64876
G1 X121.399 Y91.627 E1.90603
G1 X121.388 Y92.337 E1.93909
G1 X121.312 Y93.226 E1.98064
G1 X121.169 Y94.139 E2.02367
G1 X121.002 Y95.107 E2.06941
G1 X120.628 Y97.718 E2.19223
G1 X120.331 Y100.309 E2.31367
G1 X120.102 Y102.979 E2.43845
G1 X119.949 Y105.649 E2.56298
G1 X119.872 Y108.26 E2.68461
G1 X119.87 Y110.904 E2.80773
G1 X119.943 Y113.574 E2.9321
G1 X120.089 Y116.188 E3.05401
G1 X120.313 Y118.85 E3.1784
G1 X120.609 Y121.471 E3.30122
G1 X120.983 Y124.112 E3.42542
G1 X121.304 Y126.049 E3.51685
G1 X121.387 Y126.913 E3.55727
G1 X121.4 Y127.445 E3.58205
G1 X121.4 Y134.608 E3.91558
G1 X121.391 Y135.335 E3.94944
G1 X121.342 Y136.049 E3.98276
G1 X121.214 Y136.753 E4.01608
G1 X121.008 Y137.438 E4.04939
G1 X120.727 Y138.095 E4.08266
G1 X120.374 Y138.718 E4.11601
G1 X119.954 Y139.297 E4.14931
G1 X119.472 Y139.825 E4.1826
G1 X118.935 Y140.297 E4.21589
G1 X118.347 Y140.705 E4.24922
G1 X117.718 Y141.046 E4.28254
G1 X117.055 Y141.314 E4.31583
G1 X116.366 Y141.506 E4.34914
G1 X115.514 Y141.645 E4.38934
G1 X114.67 Y141.665 E4.42865
G1 X113.615 Y141.664 E4.47777
G1 X112.917 Y141.654 E4.51028
G1 X112.204 Y141.604 E4.54356
G1 X111.5 Y141.475 E4.57689
G1 X110.816 Y141.267 E4.61018
G1 X110.159 Y140.985 E4.64347
G1 X109.537 Y140.631 E4.67679
G1 X108.959 Y140.21 E4.71009
G1 X108.431 Y139.727 E4.74341
G1 X107.961 Y139.189 E4.77668
G1 X107.553 Y138.601 E4.81
G1 X107.214 Y137.971 E4.84331
G1 X106.947 Y137.308 E4.8766
G1 X106.702 Y136.344 E4.92291
G1 X106.537 Y135.388 E4.96808
G1 X106.049 Y132.783 E5.09149
G1 X105.485 Y130.18 E5.21551
G1 X104.857 Y127.627 E5.33794
G1 X104.152 Y125.081 E5.46095
G1 X103.368 Y122.53 E5.58522
G1 X102.526 Y120.045 E5.70739
G1 X101.597 Y117.534 E5.83206
G1 X100.623 Y115.116 E5.95344
G1 X99.559 Y112.676 E6.07739
G1 X98.431 Y110.278 E6.20079
G1 X97.232 Y107.903 E6.32467
G1 X95.971 Y105.573 E6.44804
G1 X94.653 Y103.295 E6.57059
G1 X93.268 Y101.05 E6.69342
G1 X91.809 Y98.827 E6.81723
G1 X90.243 Y96.584 E6.94461
G1 X89.805 Y95.971 E6.97969
G1 X89.422 Y95.367 E7.013
G1 X89.109 Y94.723 E7.04634
G1 X88.871 Y94.049 E7.07962
G1 X88.708 Y93.353 E7.11291
G1 X88.614 Y92.356 E7.15954
G1 X88.6 Y91.453 E7.20159
G1 X88.601 Y85.882 E7.461
G1 X88.611 Y85.187 E7.49336
G1 X88.661 Y84.473 E7.52669
G1 X88.79 Y83.77 E7.55997
G1 X88.998 Y83.085 E7.59331
G1 X89.28 Y82.428 E7.6266
G1 X89.69 Y81.708 E7.66518
G1 X90.457 Y80.676 E7.72505
G1 X96.649 Y72.635 E8.19762
M204 S3000
M205 X10 Y10
G0 F3000 X97.094 Y72.976
M204 S1800
M205 X8 Y8
G1 F2400 X97.769 Y72.184 E8.24608
G1 X98.438 Y71.517 E8.29007
G1 X98.859 Y71.16 E8.31577
G1 X99.501 Y70.687 E8.3529
G1 X99.974 Y70.386 E8.37901
G1 X100.719 Y69.984 E8.41843
G1 X101.243 Y69.749 E8.44517
G1 X102.018 Y69.466 E8.48359
G1 X102.553 Y69.312 E8.50951
G1 X103.348 Y69.142 E8.54737
G1 X103.891 Y69.065 E8.5729
G1 X104.711 Y69.007 E8.61118
G1 X105.284 Y69.007 E8.63786
G1 X106.1 Y69.064 E8.67595
G1 X106.646 Y69.141 E8.70163
G1 X107.448 Y69.313 E8.73982
G1 X108.003 Y69.473 E8.76672
G1 X108.796 Y69.765 E8.80607
G1 X109.299 Y69.993 E8.83178
G1 X110.004 Y70.373 E8.86907
G1 X110.478 Y70.672 E8.89517
G1 X111.042 Y71.076 E8.92747
G1 X111.631 Y71.574 E8.96339
G1 X112.126 Y72.062 E8.99576
G1 X112.537 Y72.532 E9.02483
G1 X113.332 Y73.522 E9.08395
G1 X119.239 Y81.2 E9.53503
G1 X119.666 Y81.772 E9.56827
G1 X120.042 Y82.343 E9.60011
G1 X120.349 Y82.953 E9.63191
G1 X120.582 Y83.596 E9.66375
G1 X120.739 Y84.261 E9.69557
G1 X120.825 Y85.168 E9.73799
G1 X120.84 Y86.102 E9.78149
G1 X120.839 Y91.618 E10.03834
G1 X120.828 Y92.328 E10.0714
G1 X120.759 Y93.139 E10.1093
G1 X120.617 Y94.044 E10.15196
G1 X120.451 Y95.006 E10.19741
G1 X120.074 Y97.64 E10.32131
G1 X119.772 Y100.27 E10.44458
G1 X119.54 Y102.969 E10.57072
G1 X119.39 Y105.601 E10.69348
G1 X119.312 Y108.242 E10.81651
G1 X119.31 Y110.919 E10.94116
G1 X119.383 Y113.587 E11.06544
G1 X119.533 Y116.264 E11.19029
G1 X119.753 Y118.886 E11.31281
G1 X120.053 Y121.542 E11.43727
G1 X120.43 Y124.204 E11.56246
G1 X120.751 Y126.141 E11.65388
G1 X120.828 Y126.929 E11.69075
G1 X120.84 Y127.445 E11.71478
G1 X120.84 Y134.601 E12.048
G1 X120.831 Y135.328 E12.08185
G1 X120.782 Y136.01 E12.11369
G1 X120.654 Y136.681 E12.1455
G1 X120.449 Y137.333 E12.17732
G1 X120.169 Y137.956 E12.20913
G1 X119.819 Y138.542 E12.24091
G1 X119.402 Y139.084 E12.27276
G1 X118.925 Y139.573 E12.30456
G1 X118.394 Y140.002 E12.33635
G1 X117.816 Y140.367 E12.36818
G1 X117.2 Y140.662 E12.39999
G1 X116.553 Y140.883 E12.43182
G1 X115.885 Y141.027 E12.46364
G1 X115.031 Y141.105 E12.50357
G1 X113.623 Y141.104 E12.56913
G1 X112.925 Y141.094 E12.60164
G1 X112.244 Y141.045 E12.63343
G1 X111.573 Y140.916 E12.66525
G1 X110.922 Y140.709 E12.69706
G1 X110.299 Y140.428 E12.72888
G1 X109.713 Y140.076 E12.76071
G1 X109.173 Y139.658 E12.79251
G1 X108.685 Y139.18 E12.82432
G1 X108.256 Y138.648 E12.85614
G1 X107.892 Y138.07 E12.88795
G1 X107.598 Y137.453 E12.91977
G1 X107.379 Y136.806 E12.95158
G1 X107.254 Y136.248 E12.97821
G1 X107.089 Y135.292 E13.02338
G1 X106.604 Y132.698 E13.14626
G1 X106.035 Y130.071 E13.27142
G1 X105.399 Y127.488 E13.39529
G1 X104.683 Y124.901 E13.52028
G1 X103.913 Y122.396 E13.64231
G1 X103.051 Y119.848 E13.76756
G1 X102.121 Y117.339 E13.89216
G1 X101.135 Y114.891 E14.01504
G1 X100.059 Y112.421 E14.1405
G1 X98.934 Y110.031 E14.2635
G1 X97.745 Y107.677 E14.3863
G1 X96.462 Y105.304 E14.51191
G1 X95.128 Y102.998 E14.63596
G1 X93.736 Y100.742 E14.7594
G1 X92.265 Y98.502 E14.88418
G1 X90.737 Y96.314 E15.00845
G1 X90.26 Y95.646 E15.04667
G1 X89.896 Y95.067 E15.07852
G1 X89.603 Y94.451 E15.11028
G1 X89.383 Y93.804 E15.1421
G1 X89.24 Y93.136 E15.17391
G1 X89.174 Y92.347 E15.21078
G1 X89.16 Y91.453 E15.25241
G1 X89.161 Y85.89 E15.51145
G1 X89.171 Y85.195 E15.54381
G1 X89.22 Y84.514 E15.5756
G1 X89.349 Y83.843 E15.60742
G1 X89.556 Y83.191 E15.63927
G1 X89.837 Y82.569 E15.67106
G1 X90.32 Y81.799 E15.71338
G1 X90.838 Y81.101 E15.75385
G1 X97.094 Y72.976 E16.23134
M204 S3000
M205 X10 Y10
G0 F3000 X97.531 Y73.326
M204 S1800
M205 X8 Y8
G1 F2400 X98.195 Y72.547 E16.27901
G1 X98.8 Y71.944 E16.31878
G1 X99.221 Y71.587 E16.34448
G1 X99.801 Y71.159 E16.37805
G1 X100.274 Y70.858 E16.40415
G1 X100.948 Y70.495 E16.4398
G1 X101.472 Y70.26 E16.46654
G1 X102.172 Y70.004 E16.50125
G1 X102.707 Y69.85 E16.52717
G1 X103.427 Y69.696 E16.56146
G1 X103.97 Y69.619 E16.58699
G1 X104.711 Y69.567 E16.62158
G1 X105.284 Y69.567 E16.64826
G1 X106.021 Y69.619 E16.68267
G1 X106.567 Y69.696 E16.70834
G1 X107.293 Y69.851 E16.74291
G1 X107.848 Y70.011 E16.76981
G1 X108.565 Y70.275 E16.80538
G1 X109.068 Y70.503 E16.8311
G1 X109.705 Y70.846 E16.86479
G1 X110.179 Y71.145 E16.89088
G1 X110.689 Y71.511 E16.92011
G1 X111.262 Y71.995 E16.95504
G1 X111.71 Y72.437 E16.98434
G1 X112.1 Y72.883 E17.01193
G1 X112.895 Y73.873 E17.07105
G1 X118.79 Y81.535 E17.5212
G1 X119.217 Y82.107 E17.55444
G1 X119.573 Y82.651 E17.58471
G1 X119.859 Y83.234 E17.61495
G1 X120.072 Y83.848 E17.64521
G1 X120.208 Y84.483 E17.67545
G1 X120.265 Y85.178 E17.70792
G1 X120.28 Y86.102 E17.75095
G1 X120.279 Y91.61 E18.00743
G1 X120.268 Y92.32 E18.04049
G1 X120.206 Y93.053 E18.07475
G1 X120.065 Y93.949 E18.11698
G1 X119.901 Y94.901 E18.16197
G1 X119.518 Y97.571 E18.28756
G1 X119.214 Y100.228 E18.41209
G1 X118.982 Y102.924 E18.53809
G1 X118.831 Y105.552 E18.66067
G1 X118.752 Y108.261 E18.78686
G1 X118.75 Y110.933 E18.91128
G1 X118.823 Y113.599 E19.03547
G1 X118.974 Y116.308 E19.16181
G1 X119.194 Y118.926 E19.28414
G1 X119.498 Y121.615 E19.41015
G1 X119.877 Y124.289 E19.53591
G1 X120.199 Y126.233 E19.62766
G1 X120.268 Y126.945 E19.66097
G1 X120.28 Y127.445 E19.68426
G1 X120.28 Y134.594 E20.01715
G1 X120.271 Y135.321 E20.051
G1 X120.223 Y135.969 E20.08126
G1 X120.095 Y136.606 E20.11151
G1 X119.891 Y137.223 E20.14177
G1 X119.612 Y137.81 E20.17203
G1 X119.264 Y138.358 E20.20226
G1 X118.851 Y138.859 E20.2325
G1 X118.379 Y139.306 E20.26277
G1 X117.856 Y139.691 E20.29301
G1 X117.29 Y140.009 E20.32324
G1 X116.688 Y140.256 E20.35354
G1 X116.062 Y140.426 E20.38374
G1 X115.042 Y140.545 E20.43156
G1 X113.631 Y140.544 E20.49726
G1 X112.933 Y140.534 E20.52977
G1 X112.286 Y140.485 E20.55998
G1 X111.649 Y140.357 E20.59023
G1 X111.033 Y140.151 E20.62048
G1 X110.446 Y139.871 E20.65076
G1 X109.899 Y139.522 E20.68097
G1 X109.398 Y139.108 E20.71124
G1 X108.953 Y138.635 E20.74148
G1 X108.568 Y138.111 E20.77176
G1 X108.251 Y137.544 E20.802
G1 X108.006 Y136.943 E20.83222
G1 X107.806 Y136.153 E20.87017
G1 X107.654 Y135.27 E20.91189
G1 X107.146 Y132.552 E21.04064
G1 X106.585 Y129.963 E21.164
G1 X105.939 Y127.341 E21.28974
G1 X105.224 Y124.754 E21.41472
G1 X104.437 Y122.196 E21.53934
G1 X103.576 Y119.651 E21.66444
G1 X102.663 Y117.185 E21.78689
G1 X101.635 Y114.635 E21.91491
G1 X100.591 Y112.238 E22.03665
G1 X99.429 Y109.768 E22.16376
G1 X98.23 Y107.394 E22.2876
G1 X96.962 Y105.05 E22.41169
G1 X95.612 Y102.718 E22.53716
G1 X94.21 Y100.444 E22.66156
G1 X92.732 Y98.193 E22.78695
G1 X91.161 Y95.943 E22.91473
G1 X90.716 Y95.32 E22.95038
G1 X90.372 Y94.769 E22.98063
G1 X90.098 Y94.18 E23.01087
G1 X89.898 Y93.562 E23.04112
G1 X89.776 Y92.924 E23.07137
G1 X89.734 Y92.338 E23.09872
G1 X89.72 Y91.453 E23.13994
G1 X89.721 Y85.898 E23.3986
G1 X89.731 Y85.203 E23.43097
G1 X89.78 Y84.555 E23.46123
G1 X89.908 Y83.919 E23.49144
G1 X90.114 Y83.302 E23.52172
G1 X90.394 Y82.716 E23.55197
G1 X90.77 Y82.132 E23.58431
G1 X91.345 Y81.359 E23.62917
G1 X97.531 Y73.326 E24.10127
M204 S3000
M205 X10 Y10
G1 F2400 E18.10127
G0 F3000 X94.338 Y85.042
G0 X94.347 Y92.882
G0 X113.2 Y127.292
M204 S1800
M205 X8 Y8
;TYPE:SUPPORT-INTERFACE
G1 F2400 E24.10127
G1 F1500 X114.8 Y127.293 E24.17578
G1 X114.8 Y135.065 E24.53767
G1 X113.2 Y135.065 E24.61218
G1 X113.2 Y127.292 E24.97412
M204 S3000
M205 X10 Y10
G0 F3000 X113.7 Y127.793
M204 S1800
M205 X8 Y8
G1 F1400 X113.7 Y134.565 E25.31198
G1 X114 Y134.565 E25.32694
G1 X114.3 Y134.565 E25.34191
G1 X114.3 Y127.793 E25.67977
G1 X113.7 Y127.793 E25.7097
M204 S3000
M205 X10 Y10
G1 F2400 E19.7097
;MESH:maaya.stl
G0 F3000 X113.459 Y92.965
G0 X113.413 Y91.888
G0 X113.63 Y86.033
G1 F2400 E25.7097
G0 F3000 X113.543 Y85.991
M204 S1800
M205 X8 Y8
;TYPE:WALL-INNER
G1 F1070.1 X113 Y86.267 E25.74946
G1 X113.543 Y86.543 E25.78922
G1 X114 Y87.267 E25.8451
G1 F1009.6 X114.047 Y86.767 E25.87985
G1 F1139.8 X114.095 Y86.267 E25.91063
G1 F1217.4 X114.095 Y85.617 E25.94792
G1 X114.095 Y85.575 E25.95033
G1 X113.789 Y85.172 E25.97936
G1 X113.851 Y85.575 E26.00276
G1 X113.543 Y85.991 E26.03245
M204 S3000
M205 X10 Y10
G0 F3000 X113.63 Y86.033
G0 X113.508 Y85.21
G0 X107.672 Y77.903
G0 X105.371 Y76.188
G0 X105.36 Y76.249
M204 S1800
M205 X8 Y8
G1 F1552.7 X105.936 Y76.357 E26.05882
G1 F1637.4 X106.435 Y76.545 E26.08156
G1 F1183.1 X106.861 Y76.514 E26.10678
G1 X106.647 Y76.103 E26.13413
G1 F1637.4 X106.094 Y75.85 E26.16007
G1 F1549.8 X105.66 Y75.736 E26.1803
G1 F1510.8 X105.225 Y75.677 E26.20059
G1 F1500 X104.78 Y75.677 E26.22131
G1 F1508.1 X104.34 Y75.737 E26.24188
G1 F1547 X103.905 Y75.85 E26.26217
G1 F1609.2 X103.499 Y76.022 E26.28131
G1 F1700.4 X103.096 Y76.257 E26.30047
G1 F1251.9 X102.916 Y76.666 E26.32541
G1 X103.362 Y76.65 E26.35031
G1 F1735.5 X103.544 Y76.554 E26.35859
G1 F1640.6 X104.063 Y76.357 E26.38222
G1 F1541.3 X104.752 Y76.24 E26.41389
G1 F1516.2 X105.36 Y76.249 E26.4419
M204 S3000
M205 X10 Y10
G0 F3000 X105.371 Y76.188
G0 X103.634 Y76.912
G0 X102.697 Y77.512
G0 X95.905 Y85.59
M204 S1800
M205 X8 Y8
G1 F1318.7 X95.905 Y86.267 E26.47776
G1 F1139.8 X95.952 Y86.767 E26.50854
G1 F1009.6 X96 Y87.267 E26.54329
G1 F1070.1 X96.457 Y86.543 E26.59917
G1 F1066 X96.912 Y86.267 E26.63404
G1 X96.456 Y85.991 E26.66896
G1 F1217.4 X96.147 Y85.577 E26.6986
G1 F1435.9 X96.29 Y84.895 E26.7325
G1 F1578.9 X95.905 Y85.59 E26.76765
M204 S3000
M205 X10 Y10
G0 F3000 X96.832 Y86.367
G0 X96.832 Y87.043
M204 S1800
M205 X8 Y8
;TYPE:WALL-OUTER
G1 F1500 X96.975 Y86.987 E26.7748
G1 X113 Y86.987 E27.52099
G1 X113.168 Y87.043 E27.52923
G1 X113.28 Y87.267 E27.5409
G1 X113.28 Y92.028 E27.76259
G1 X114.72 Y91.966 E27.8297
G1 X114.72 Y85.617 E28.12534
G1 X114.72 Y85.362 E28.13721
G1 X114.564 Y85.16 E28.1491
G1 F1242.6 X113.934 Y84.531 E28.19914
G1 F1056.6 X113.582 Y84.078 E28.23706
G1 F1237.1 X113.433 Y83.689 E28.26058
G1 F1500 X107.954 Y76.568 E28.67895
G1 X107.599 Y76.166 E28.70392
G1 F1502.7 X107.203 Y75.829 E28.72809
G1 X106.764 Y75.554 E28.75217
G1 F1500 X106.283 Y75.337 E28.77674
G1 X105.777 Y75.19 E28.80128
G1 X105.265 Y75.117 E28.82536
G1 X104.741 Y75.117 E28.84976
G1 X104.223 Y75.19 E28.87412
G1 X103.716 Y75.337 E28.8987
G1 X103.246 Y75.549 E28.92271
G1 X102.802 Y75.827 E28.9471
G1 X102.407 Y76.163 E28.97125
G1 X102.052 Y76.563 E28.99615
G1 X95.28 Y85.364 E29.51324
G1 X95.28 Y91.983 E29.82145
G1 X96.72 Y92.041 E29.88855
G1 X96.72 Y87.267 E30.11085
G1 X96.832 Y87.043 E30.12251
M204 S3000
M205 X10 Y10
G0 F3000 X96.975 Y86.987
G0 X97.022 Y86.987
G0 X97.022 Y86.367
G0 X96.492 Y85.21
G0 X102.325 Y77.907
G0 X103.144 Y77.172
G0 X104.168 Y76.73
G0 X105.279 Y76.639
G0 X106.358 Y76.909
G0 X107.106 Y77.363
G0 X109.883 Y80.011
G0 X112.611 Y84.332
M204 S1800
M205 X8 Y8
G1 F1237.1 X112.953 Y84.57 E30.14604
G1 F1056.6 X113.31 Y85.019 E30.18396
G1 F1242.6 X113.264 Y85.363 E30.20347
G1 F1500 X113.099 Y85.53 E30.2144
G1 X113 Y85.547 E30.21907
G1 X96.974 Y85.547 E30.96531
G1 X96.831 Y85.491 E30.97246
G1 X96.735 Y85.363 E30.97991
G1 X96.75 Y85.136 E30.99051
G1 X102.453 Y78.001 E31.41583
G1 X102.787 Y77.648 E31.43846
G1 X103.25 Y77.295 E31.46557
G1 X103.675 Y77.069 E31.48798
G1 X104.201 Y76.885 E31.51393
G1 X104.714 Y76.801 E31.53814
G1 X105.241 Y76.797 E31.56268
G1 X105.799 Y76.885 E31.58898
G1 X106.317 Y77.066 E31.61453
G1 X106.788 Y77.319 E31.63943
G1 X107.178 Y77.615 E31.66222
G1 X107.56 Y78.016 E31.68801
G1 X112.611 Y84.332 E32.06459
M204 S3000
M205 X10 Y10
G0 F3000 X112.775 Y84.446
G0 X113.019 Y84.007
M204 S1800
M205 X8 Y8
;TYPE:WALL-INNER
G1 F1714.3 X112.707 Y83.609 E32.0852
G1 F1680 X112.395 Y83.211 E32.10622
G1 F1650.3 X112.083 Y82.813 E32.12763
G1 F1621.6 X111.77 Y82.415 E32.14943
G1 F1590.9 X111.458 Y82.017 E32.17164
G1 F1564.2 X111.146 Y81.619 E32.19422
G1 F1538.5 X110.833 Y81.22 E32.21724
G1 F1510.8 X110.521 Y80.822 E32.24062
G1 F1486.7 X110.209 Y80.424 E32.26438
G1 F1460.9 X109.896 Y80.026 E32.28859
G1 F1438.4 X109.584 Y79.628 E32.31315
G1 F1416.5 X109.272 Y79.23 E32.33808
