;FLAVOR:Marlin
;TIME:1633
;Filament used: 1.96598m
;Layer height: 0.2
;MINX:88.6
;MINY:68.386
;MINZ:0.2
;MAXX:121.4
;MAXY:141.605
;MAXZ:18
;Generated with Cura_SteamEngine main
M140 S60
M105
M190 S60
M104 S200
M105
M109 S200
M82 ;absolute extrusion mode
G21 ;metric values
G90 ;absolute positioning
M82 ;set extruder to absolute mode
M107 ;start with the fan off
G28 X0 Y0 ;move X/Y to min endstops
G28 Z0 ;move Z to min endstops
G1 Z15.0 F100 ;move the platform down 15mm
G92 E0 ;zero the extruded length
G1 F200 E3 ;extrude 3mm of feed stock
G92 E0 ;zero the extruded length again
G1 F100
G0 Y20 F100
M117 Printing...
G5
G92 E0
G92 E0
G1 F2400 E-6
;LAYER_COUNT:90
;LAYER:0
M107
M204 S3000
M205 X10 Y10
G1 F600 Z0.275
G0 F3000 X96.383 Y72.911 Z0.275
M204 S1800
M205 X8 Y8
;TYPE:SKIRT
G1 F600 Z0.2
G1 F2400 E0
G1 X96.749 Y72.456 E0.02719
G1 X97.336 Y71.766 E0.06937
G1 X98.08 Y71.025 E0.11827
G1 X98.519 Y70.654 E0.14503
G1 X99.239 Y70.127 E0.18658
G1 X99.693 Y69.841 E0.21156
G1 X100.468 Y69.424 E0.25254
G1 X100.988 Y69.189 E0.27912
G1 X101.863 Y68.868 E0.32251
G1 X102.408 Y68.712 E0.34891
G1 X103.264 Y68.529 E0.38967
G1 X103.817 Y68.45 E0.41568
G1 X104.744 Y68.386 E0.45895
G1 X105.328 Y68.388 E0.48614
G1 X106.218 Y68.453 E0.5277
G1 X106.753 Y68.53 E0.55286
G1 X107.64 Y68.723 E0.59513
G1 X108.183 Y68.882 E0.62148
G1 X108.929 Y69.152 E0.65842
G1 X109.635 Y69.467 E0.69442
G1 X110.604 Y70.008 E0.7461
G1 X111.479 Y70.652 E0.79669
G1 X111.972 Y71.068 E0.82672
G1 X112.492 Y71.559 E0.86002
G1 X112.832 Y71.948 E0.88408
G1 X113.896 Y73.273 E0.96321
G1 X119.683 Y80.797 E1.4052
G1 X120.109 Y81.366 E1.4383
G1 X120.505 Y81.962 E1.47162
G1 X120.832 Y82.598 E1.50492
G1 X121.086 Y83.267 E1.53824
G1 X121.264 Y83.959 E1.57151
G1 X121.38 Y84.782 E1.61021
G1 X121.4 Y86.04 E1.6688
G1 X121.399 Y134.557 E3.92795
G1 X121.389 Y135.284 E3.96181
G1 X121.34 Y135.998 E3.99513
G1 X121.211 Y136.701 E4.02841
G1 X121.004 Y137.386 E4.06173
G1 X120.722 Y138.043 E4.09503
G1 X120.368 Y138.665 E4.12835
G1 X119.948 Y139.243 E4.16162
G1 X119.465 Y139.771 E4.19494
G1 X118.927 Y140.242 E4.22824
G1 X118.339 Y140.65 E4.26156
G1 X117.709 Y140.99 E4.2949
G1 X117.046 Y141.257 E4.32818
G1 X116.357 Y141.448 E4.36147
G1 X115.509 Y141.585 E4.40147
G1 X114.67 Y141.605 E4.44055
G1 X113.607 Y141.604 E4.49005
G1 X112.902 Y141.593 E4.52288
G1 X112.189 Y141.542 E4.55616
G1 X111.485 Y141.412 E4.5895
G1 X110.801 Y141.204 E4.62279
G1 X110.144 Y140.921 E4.6561
G1 X109.425 Y140.501 E4.69487
G1 X107.401 Y139.137 E4.80852
G1 X105.18 Y137.725 E4.93107
G1 X102.914 Y136.375 E5.05389
G1 X100.557 Y135.057 E5.17964
G1 X98.232 Y133.844 E5.30175
G1 X95.874 Y132.696 E5.42387
G1 X93.35 Y131.555 E5.55285
G1 X92.456 Y131.166 E5.59824
G1 X91.817 Y130.845 E5.63154
G1 X91.218 Y130.454 E5.66485
G1 X90.666 Y129.998 E5.69819
G1 X90.169 Y129.484 E5.73148
G1 X89.732 Y128.918 E5.76478
G1 X89.361 Y128.306 E5.7981
G1 X89.061 Y127.657 E5.8314
G1 X88.835 Y126.979 E5.86467
G1 X88.686 Y126.279 E5.898
G1 X88.613 Y125.496 E5.93462
G1 X88.6 Y124.975 E5.95888
G1 X88.601 Y85.82 E7.78211
G1 X88.611 Y85.124 E7.81452
G1 X88.661 Y84.411 E7.8478
G1 X88.79 Y83.707 E7.88113
G1 X88.998 Y83.023 E7.91442
G1 X89.28 Y82.365 E7.94775
G1 X89.689 Y81.648 E7.98619
G1 X90.427 Y80.653 E8.04387
G1 X96.383 Y72.911 E8.49871
M204 S3000
M205 X10 Y10
G0 F3000 X96.974 Y73.062
M204 S1800
M205 X8 Y8
G1 F2400 X97.763 Y72.129 E8.5556
G1 X98.441 Y71.453 E8.60019
G1 X98.88 Y71.082 E8.62695
G1 X99.537 Y70.601 E8.66486
G1 X99.991 Y70.315 E8.68985
G1 X100.699 Y69.934 E8.72729
G1 X101.219 Y69.699 E8.75386
G1 X102.017 Y69.406 E8.79344
G1 X102.562 Y69.25 E8.81984
G1 X103.343 Y69.084 E8.85702
G1 X103.896 Y69.005 E8.88303
G1 X104.742 Y68.946 E8.92252
G1 X105.326 Y68.948 E8.94971
G1 X106.138 Y69.008 E8.98763
G1 X106.673 Y69.085 E9.01279
G1 X107.482 Y69.26 E9.05134
G1 X108.025 Y69.419 E9.07768
G1 X108.808 Y69.702 E9.11645
G1 X109.494 Y70.029 E9.15184
G1 X110.302 Y70.48 E9.19492
G1 X111.118 Y71.08 E9.24209
G1 X111.611 Y71.496 E9.27212
G1 X112.197 Y72.052 E9.30974
G1 X113.452 Y73.614 E9.40304
G1 X119.235 Y81.133 E9.84473
G1 X119.661 Y81.702 E9.87783
G1 X120.038 Y82.272 E9.90965
G1 X120.345 Y82.882 E9.94145
G1 X120.58 Y83.524 E9.97328
G1 X120.737 Y84.189 E10.0051
G1 X120.825 Y85.104 E10.0479
G1 X120.84 Y86.04 E10.09149
G1 X120.839 Y134.549 E12.35028
G1 X120.829 Y135.276 E12.38413
G1 X120.78 Y135.958 E12.41597
G1 X120.652 Y136.629 E12.44778
G1 X120.445 Y137.28 E12.47959
G1 X120.165 Y137.903 E12.51139
G1 X119.813 Y138.489 E12.54322
G1 X119.396 Y139.03 E12.57503
G1 X118.918 Y139.518 E12.60684
G1 X118.386 Y139.947 E12.63866
G1 X117.808 Y140.311 E12.67047
G1 X117.191 Y140.605 E12.70229
G1 X116.544 Y140.825 E12.73411
G1 X115.876 Y140.968 E12.76592
G1 X115.03 Y141.045 E12.80548
G1 X113.616 Y141.044 E12.87132
G1 X112.911 Y141.033 E12.90415
G1 X112.23 Y140.983 E12.93595
G1 X111.559 Y140.853 E12.96777
G1 X110.908 Y140.646 E12.99958
G1 X110.285 Y140.364 E13.03142
G1 X109.738 Y140.037 E13.0611
G1 X107.704 Y138.666 E13.17532
G1 X105.464 Y137.243 E13.29889
G1 X103.181 Y135.882 E13.42265
G1 X100.853 Y134.581 E13.54683
G1 X98.486 Y133.345 E13.67117
G1 X96.1 Y132.184 E13.79473
G1 X93.61 Y131.058 E13.92198
G1 X92.679 Y130.653 E13.96925
G1 X92.07 Y130.344 E14.00105
G1 X91.501 Y129.966 E14.03286
G1 X90.979 Y129.524 E14.06471
G1 X90.513 Y129.024 E14.09654
G1 X90.109 Y128.474 E14.12831
G1 X89.772 Y127.88 E14.16011
G1 X89.506 Y127.25 E14.19196
G1 X89.316 Y126.594 E14.22376
G1 X89.181 Y125.789 E14.26177
G1 X89.16 Y124.975 E14.29968
G1 X89.161 Y85.828 E16.12253
G1 X89.171 Y85.132 E16.15494
G1 X89.22 Y84.451 E16.18673
G1 X89.349 Y83.78 E16.21855
G1 X89.556 Y83.128 E16.2504
G1 X89.837 Y82.506 E16.28218
G1 X90.318 Y81.738 E16.32438
G1 X90.808 Y81.077 E16.36269
G1 X96.974 Y73.062 E16.83357
M204 S3000
M205 X10 Y10
G0 F3000 X97.261 Y73.607
M204 S1800
M205 X8 Y8
G1 F2400 X97.602 Y73.182 E16.85894
G1 X98.189 Y72.492 E16.90112
G1 X98.803 Y71.88 E16.94149
G1 X99.242 Y71.509 E16.96825
G1 X99.836 Y71.075 E17.00251
G1 X100.29 Y70.789 E17.02749
G1 X100.93 Y70.445 E17.06133
G1 X101.45 Y70.21 E17.0879
G1 X102.171 Y69.945 E17.12367
G1 X102.716 Y69.789 E17.15006
G1 X103.422 Y69.638 E17.18368
G1 X103.975 Y69.559 E17.20969
G1 X104.74 Y69.506 E17.2454
G1 X105.324 Y69.508 E17.27259
G1 X106.058 Y69.562 E17.30686
G1 X106.593 Y69.639 E17.33203
G1 X107.325 Y69.798 E17.36691
G1 X107.868 Y69.957 E17.39326
G1 X108.483 Y70.179 E17.4237
G1 X109.145 Y70.474 E17.45745
G1 X110.003 Y70.954 E17.50323
G1 X110.757 Y71.508 E17.5468
G1 X111.25 Y71.924 E17.57684
G1 X111.787 Y72.436 E17.61138
G1 X113.008 Y73.956 E17.70217
G1 X118.787 Y81.469 E18.14353
G1 X119.213 Y82.038 E18.17663
G1 X119.569 Y82.581 E18.20686
G1 X119.857 Y83.163 E18.2371
G1 X120.07 Y83.777 E18.26736
G1 X120.207 Y84.412 E18.29761
G1 X120.265 Y85.114 E18.33041
G1 X120.28 Y86.04 E18.37353
G1 X120.28 Y134.542 E20.63199
G1 X120.27 Y135.269 E20.66584
G1 X120.221 Y135.916 E20.69606
G1 X120.093 Y136.553 E20.72631
G1 X119.887 Y137.17 E20.7566
G1 X119.608 Y137.756 E20.78682
G1 X119.259 Y138.304 E20.81707
G1 X118.845 Y138.804 E20.8473
G1 X118.372 Y139.25 E20.87757
G1 X117.849 Y139.635 E20.90781
G1 X117.282 Y139.953 E20.93808
G1 X116.681 Y140.198 E20.9683
G1 X116.054 Y140.368 E20.99855
G1 X115.04 Y140.485 E21.04608
G1 X113.625 Y140.484 E21.11197
G1 X112.92 Y140.473 E21.1448
G1 X112.272 Y140.423 E21.17507
G1 X111.635 Y140.294 E21.20533
G1 X111.019 Y140.088 E21.23558
G1 X110.318 Y139.752 E21.27177
G1 X108.024 Y138.206 E21.40058
G1 X105.773 Y136.775 E21.52479
G1 X103.448 Y135.39 E21.6508
G1 X101.107 Y134.082 E21.77567
G1 X98.74 Y132.845 E21.90003
G1 X96.354 Y131.684 E22.02359
G1 X93.794 Y130.527 E22.1544
G1 X92.903 Y130.139 E22.19965
G1 X92.324 Y129.844 E22.22991
G1 X91.786 Y129.48 E22.26016
G1 X91.297 Y129.052 E22.29042
G1 X90.864 Y128.568 E22.32066
G1 X90.494 Y128.034 E22.35091
G1 X90.192 Y127.459 E22.38115
G1 X89.963 Y126.851 E22.4114
G1 X89.811 Y126.219 E22.44167
G1 X89.72 Y125.335 E22.48305
G1 X89.721 Y85.836 E24.32229
G1 X89.731 Y85.14 E24.3547
G1 X89.78 Y84.492 E24.38496
G1 X89.908 Y83.856 E24.41517
G1 X90.114 Y83.239 E24.44546
G1 X90.394 Y82.653 E24.4757
G1 X90.768 Y82.072 E24.50788
G1 X91.258 Y81.411 E24.54619
G1 X97.261 Y73.607 E25.00465
M204 S3000
M205 X10 Y10
G1 F2400 E19.00465
;MESH:maaya3.stl
G0 F3000 X101.689 Y75.486
G0 X102.499 Y76.206
G0 X104.756 Y76.118
G1 F2400 E25.00465
G0 F3000 X104.756 Y76.179
M204 S1800
M205 X8 Y8
;TYPE:WALL-INNER
G1 F1513.5 X105.375 Y76.191 E25.03322
G1 F1549.8 X105.937 Y76.297 E25.05899
G1 F1640.6 X106.437 Y76.485 E25.08174
G1 F1186.4 X106.862 Y76.454 E25.10682
G1 X106.649 Y76.043 E25.13407
G1 F1640.6 X106.096 Y75.79 E25.15996
G1 F1547 X105.662 Y75.677 E25.18021
G1 F1508.1 X105.221 Y75.616 E25.20083
G1 F1497.3 X104.783 Y75.616 E25.22126
G1 F1508.1 X104.341 Y75.676 E25.24192
G1 F1547 X103.907 Y75.789 E25.26217
G1 F1612.3 X103.497 Y75.964 E25.28148
G1 F1703.9 X103.107 Y76.187 E25.2999
G1 F1764.7 X102.768 Y76.475 E25.31751
G1 F1690.1 X102.462 Y76.852 E25.33757
G1 F1390.7 X102.337 Y77.155 E25.35403
G1 X102.632 Y77.022 E25.37028
G1 F1690.1 X103.003 Y76.779 E25.38861
G1 F1739.1 X103.547 Y76.492 E25.41331
G1 F1643.8 X104.064 Y76.296 E25.43681
G1 F1541.3 X104.756 Y76.179 E25.46861
M204 S3000
M205 X10 Y10
G0 F3000 X104.756 Y76.118
G0 X103.142 Y77.112
G0 X95.905 Y85.528
M204 S1800
M205 X8 Y8
G1 F1318.7 X95.905 Y86.205 E25.50447
G1 F1139.8 X95.952 Y86.705 E25.53525
G1 F1009.6 X96 Y87.205 E25.57
G1 F1070.1 X96.457 Y86.481 E25.62588
G1 F1066 X96.912 Y86.205 E25.66075
G1 X96.456 Y85.929 E25.69567
G1 F1217.4 X96.147 Y85.515 E25.72531
G1 F1435.9 X96.29 Y84.833 E25.75921
G1 F1578.9 X95.905 Y85.528 E25.79436
M204 S3000
M205 X10 Y10
G0 F3000 X113.524 Y86.038
G0 X113.543 Y85.929
M204 S1800
M205 X8 Y8
G1 F1070.1 X113 Y86.205 E25.83411
G1 X113.543 Y86.481 E25.87387
G1 X114 Y87.205 E25.92976
G1 F1009.6 X114.047 Y86.705 E25.9645
G1 F1139.8 X114.095 Y86.205 E25.99528
G1 F1217.4 X114.095 Y85.555 E26.03258
G1 X114.095 Y85.513 E26.03499
G1 X113.789 Y85.11 E26.06402
G1 X113.851 Y85.513 E26.08741
G1 X113.543 Y85.929 E26.11711
M204 S3000
M205 X10 Y10
G0 F3000 X113.63 Y85.971
G0 X113.508 Y85.148
G0 X109.885 Y79.95
G0 X112.616 Y84.276
M204 S1800
M205 X8 Y8
;TYPE:WALL-OUTER
G1 F1237.1 X112.958 Y84.514 E26.14063
G1 F1056.6 X113.31 Y84.957 E26.17804
G1 F1242.6 X113.264 Y85.301 E26.19754
G1 F1500 X113.099 Y85.468 E26.20848
G1 X113 Y85.485 E26.21315
G1 X96.974 Y85.485 E26.95939
G1 X96.831 Y85.429 E26.96654
G1 X96.735 Y85.301 E26.97399
G1 X96.75 Y85.074 E26.98458
G1 X102.453 Y77.939 E27.40991
G1 X102.79 Y77.585 E27.43267
G1 X103.246 Y77.236 E27.45941
G1 X103.718 Y76.989 E27.48421
G1 X104.179 Y76.831 E27.5069
G1 X104.716 Y76.74 E27.53226
G1 X105.24 Y76.737 E27.55666
G1 X105.798 Y76.825 E27.58297
G1 X106.278 Y76.988 E27.60657
G1 X106.753 Y77.236 E27.63152
G1 X107.215 Y77.586 E27.65851
G1 X107.548 Y77.94 E27.68114
G1 X112.616 Y84.276 E28.05894
M204 S3000
M205 X10 Y10
G0 F3000 X112.78 Y84.39
G0 X113.076 Y84.018
G0 X113.508 Y85.148
G0 X96.832 Y86.305
G0 X96.832 Y86.981
M204 S1800
M205 X8 Y8
G1 F1500 X96.975 Y86.925 E28.0661
G1 X113 Y86.925 E28.81229
G1 X113.168 Y86.981 E28.82053
G1 X113.28 Y87.205 E28.83219
G1 X113.28 Y134.925 E31.05424
G1 X114.72 Y134.925 E31.12129
G1 X114.72 Y85.555 E33.42016
G1 X114.72 Y85.3 E33.43204
G1 X114.564 Y85.098 E33.44392
G1 F1242.6 X113.934 Y84.469 E33.49396
G1 F1056.6 X113.587 Y84.022 E33.53137
G1 F1237.1 X113.437 Y83.633 E33.55491
G1 F1500 X107.955 Y76.506 E33.97359
G1 X107.599 Y76.106 E33.99852
G1 F1502.7 X107.205 Y75.769 E34.02262
G1 X106.761 Y75.492 E34.04695
G1 F1500 X106.285 Y75.277 E34.07127
G1 X105.779 Y75.13 E34.0958
G1 X105.261 Y75.056 E34.12017
G1 X104.743 Y75.056 E34.14429
G1 X104.224 Y75.13 E34.1687
G1 X103.718 Y75.276 E34.19322
G1 X103.243 Y75.49 E34.21748
G1 X102.8 Y75.768 E34.24183
G1 X102.405 Y76.104 E34.26598
G1 F1502.7 X102.048 Y76.504 E34.2909
G1 X98.664 Y80.903 E34.54887
G1 X95.28 Y85.302 E34.80684
G1 F1500 X95.28 Y125.025 E36.65651
G1 X96.72 Y125.025 E36.72356
G1 X96.72 Y87.205 E38.48462
G1 X96.832 Y86.981 E38.49628
M204 S3000
M205 X10 Y10
G0 F3000 X96.975 Y86.925
G0 X97.022 Y86.925
G0 X96.912 Y86.205
M204 S1800
M205 X8 Y8
;TYPE:WALL-INNER
G1 F949.2 X98.15 Y86.205 E38.58738
G1 X99.388 Y86.205 E38.67849
G1 F950.2 X100.626 Y86.205 E38.76949
G1 X101.864 Y86.205 E38.86048
G1 F951.3 X103.102 Y86.205 E38.95138
G1 X104.34 Y86.205 E39.04228
G1 X105.578 Y86.205 E39.13317
G1 F952.4 X106.816 Y86.205 E39.22397
G1 X108.054 Y86.205 E39.31476
G1 F953.5 X109.292 Y86.205 E39.40545
G1 X110.53 Y86.205 E39.49614
G1 F954.5 X111.768 Y86.205 E39.58673
G1 X113.006 Y86.205 E39.67731
M204 S3000
M205 X10 Y10
G0 F3000 X113.828 Y86.377
G0 X114 Y87.205
M204 S1800
M205 X8 Y8
G1 F954.5 X114 Y134.205 E43.11641
M204 S3000
M205 X10 Y10
G0 F3000 X113.828 Y86.377
G0 X96.172 Y86.377
G0 X96 Y124.305
M204 S1800
M205 X8 Y8
G1 F954.5 X96 Y87.205 E45.8311
M204 S3000
M205 X10 Y10
G0 F3000 X96.063 Y85.222
G0 X96.29 Y84.833
M204 S1800
M205 X8 Y8
G1 F1775.9 X96.37 Y84.721 E45.83652
G1 F1787.2 X96.681 Y84.325 E45.8562
G1 F1750 X96.992 Y83.929 E45.87629
G1 F1717.8 X97.303 Y83.532 E45.8968
G1 F1683.4 X97.614 Y83.136 E45.91769
G1 F1653.5 X97.926 Y82.739 E45.93902
G1 F1624.8 X98.237 Y82.343 E45.96067
G1 F1593.9 X98.548 Y81.946 E45.98276
G1 F1567.2 X98.859 Y81.55 E46.00521
G1 F1538.5 X99.17 Y81.153 E46.0281
G1 F1513.5 X99.482 Y80.757 E46.05137
G1 F1486.7 X99.793 Y80.36 E46.07506
G1 F1463.4 X100.104 Y79.964 E46.09909
G1 F1438.4 X100.415 Y79.567 E46.12358
G1 F1416.5 X100.726 Y79.171 E46.14841
G1 F1395.3 X101.038 Y78.774 E46.17368
G1 F1372.5 X101.349 Y78.378 E46.19931
G1 F1352.7 X101.66 Y77.981 E46.22535
G1 F1331.2 X101.971 Y77.585 E46.25177
G1 F1267 X102.337 Y77.155 E46.2829
M204 S3000
M205 X10 Y10
G0 F3000 X103.476 Y76.481
G0 X104.686 Y76.179
G0 X106.862 Y76.454
M204 S1800
M205 X8 Y8
G1 F939.6 X107.1 Y76.615 E46.30426
G1 F1158.6 X107.772 Y77.257 E46.36028
G1 F1438.4 X108.08 Y77.65 E46.38453
G1 F1453.3 X108.389 Y78.043 E46.40856
G1 F1468.5 X108.697 Y78.437 E46.43234
G1 F1484.1 X109.006 Y78.83 E46.45587
G1 F1500 X109.315 Y79.224 E46.47919
G1 F1516.2 X109.623 Y79.617 E46.50219
G1 F1532.8 X109.932 Y80.011 E46.525
G1 F1549.8 X110.241 Y80.404 E46.54753
G1 F1567.2 X110.549 Y80.797 E46.56979
G1 F1584.9 X110.858 Y81.191 E46.59185
G1 F1603.1 X111.166 Y81.584 E46.61361
G1 F1621.6 X111.475 Y81.978 E46.63518
G1 F1640.6 X111.784 Y82.371 E46.65646
G1 F1660.1 X112.092 Y82.765 E46.6775
G1 F1680 X112.401 Y83.158 E46.69829
G1 F1700.4 X112.71 Y83.552 E46.71885
G1 F1721.3 X113.018 Y83.945 E46.73911
M204 S3000
M205 X10 Y10
;MESH:NONMESH
G0 F600 X113.018 Y83.945 Z0.4
G0 F3000 X109.885 Y79.95
G0 X113.508 Y85.148
G0 X96.572 Y86.777
G0 X96 Y87.205
;TIME_ELAPSED:41.250498
;LAYER:1
M106 S127.5
M204 S1800
M205 X8 Y8
;TYPE:WALL-INNER
;MESH:maaya3.stl
G1 F2117.6 X96.385 Y86.385 E46.77113
G1 F2031.6 X96.642 Y86.251 E46.7818
G1 F2137.8 X96.912 Y86.205 E46.79139
G1 X96.642 Y86.159 E46.80098
G1 F2031.6 X96.384 Y86.025 E46.81169
G1 F2000 X96.034 Y85.556 E46.83358
G1 X96.035 Y85.542 E46.83411
G1 X96.025 Y85.556 E46.83475
G1 X96.025 Y86.205 E46.85904
G1 F2059.5 X96.013 Y86.705 E46.87721
G1 F2184.5 X96 Y87.205 E46.89435
M204 S3000
M205 X10 Y10
G0 F4500 X96.172 Y86.377
G0 X113.615 Y86.025
M204 S1800
M205 X8 Y8
G1 F2008.9 X113.36 Y86.163 E46.90515
G1 F2127.7 X113 Y86.205 E46.91789
G1 X113.36 Y86.247 E46.93064
G1 F2008.9 X113.615 Y86.385 E46.94144
G1 F2117.6 X114 Y87.205 E46.97346
G1 F2184.5 X113.988 Y86.705 E46.99059
G1 F2059.5 X113.975 Y86.205 E47.00876
G1 F2000 X113.975 Y85.555 E47.03309
G1 X113.969 Y85.546 E47.03349
G1 X113.615 Y86.025 E47.05578
M204 S3000
M205 X10 Y10
G0 F4500 X96.64 Y86.305
G0 X96.64 Y86.725
M204 S1800
M205 X8 Y8
G1 F2250 X96.947 Y86.606 E47.06673
G1 X113 Y86.605 E47.60065
G1 X113.211 Y86.643 E47.60778
G1 X113.36 Y86.725 E47.61344
G1 X113.6 Y87.205 E47.63129
G1 X113.6 Y134.605 E49.20782
G1 X114.4 Y134.605 E49.23443
G1 X114.4 Y85.555 E50.86584
G1 X114.4 Y85.409 E50.87069
G1 F2261.3 X114.093 Y85.005 E50.88749
G1 F2284.3 X113.786 Y84.6 E50.90414
G1 X113.475 Y84.199 E50.92076
G1 F2255.6 X113.163 Y83.798 E50.93762
G1 F2227.7 X112.851 Y83.397 E50.95469
