;FLAVOR:Marlin
;TIME:1586
;Filament used: 1.23884m
;Layer height: 0.2
;MINX:89.187
;MINY:89.6
;MINZ:0.2
;MAXX:120.823
;MAXY:120.399
;MAXZ:50.2
;Generated with Cura_SteamEngine main
M140 S60
M105
M190 S60
M104 S200
M105
M109 S200
M82 ;absolute extrusion mode
G21 ;metric values
G90 ;absolute positioning
M82 ;set extruder to absolute mode
M107 ;start with the fan off
G28 X0 Y0 ;move X/Y to min endstops
G28 Z0 ;move Z to min endstops
G1 Z15.0 F100 ;move the platform down 15mm
G92 E0 ;zero the extruded length
G1 F200 E3 ;extrude 3mm of feed stock
G92 E0 ;zero the extruded length again
G1 F100
G0 Y20 F100
M117 Printing...
G5
G92 E0
G92 E0
G1 F2400 E-6
;LAYER_COUNT:252
;LAYER:0
M107
M204 S3000
M205 X10 Y10
G1 F600 Z0.275
G0 F3000 X91.168 Y96.566 Z0.275
G1 F600 Z0.2
G0 F3000 X89.187 Y103.959
M204 S1800
M205 X8 Y8
;TYPE:SKIRT
G1 F2400 E0
G1 X89.202 Y103.073 E0.04126
G1 X89.243 Y102.173 E0.08321
G1 X89.363 Y100.536 E0.15964
G1 X89.499 Y99.679 E0.20005
G1 X89.689 Y98.989 E0.23337
G1 X89.954 Y98.325 E0.26666
G1 X90.292 Y97.695 E0.29995
G1 X90.698 Y97.106 E0.33326
G1 X91.168 Y96.566 E0.3666
G1 X91.694 Y96.082 E0.39988
G1 X92.272 Y95.66 E0.43321
G1 X92.893 Y95.305 E0.46652
G1 X93.624 Y94.994 E0.50351
G1 X94.148 Y94.809 E0.52938
G1 X94.766 Y94.609 E0.55963
G1 X95.291 Y94.466 E0.58496
G1 X97.185 Y94.036 E0.6754
G1 X99.726 Y93.406 E0.7973
G1 X102.324 Y92.683 E0.92287
G1 X104.835 Y91.908 E1.04524
G1 X107.268 Y91.082 E1.16488
G1 X108.252 Y90.734 E1.21348
G1 X109.576 Y90.244 E1.27922
G1 X110.362 Y89.968 E1.31801
G1 X111.049 Y89.77 E1.3513
G1 X111.754 Y89.65 E1.3846
G1 X112.295 Y89.612 E1.40985
G1 X112.8 Y89.6 E1.43338
G1 X114.506 Y89.611 E1.51282
G1 X115.22 Y89.661 E1.54614
G1 X115.923 Y89.79 E1.57943
G1 X116.608 Y89.997 E1.61275
G1 X117.265 Y90.28 E1.64606
G1 X117.887 Y90.633 E1.67936
G1 X118.465 Y91.054 E1.71266
G1 X118.993 Y91.537 E1.74598
G1 X119.463 Y92.076 E1.77928
G1 X119.871 Y92.664 E1.8126
G1 X120.21 Y93.293 E1.84587
G1 X120.477 Y93.957 E1.8792
G1 X120.668 Y94.646 E1.91249
G1 X120.806 Y95.51 E1.95323
G1 X120.822 Y96.366 E1.9931
G1 X120.81 Y97.264 E2.03492
G1 X120.735 Y98.317 E2.08407
G1 X120.584 Y100.953 E2.20702
G1 X120.506 Y103.599 E2.33028
G1 X120.504 Y106.241 E2.4533
G1 X120.577 Y108.91 E2.57763
G1 X120.726 Y111.572 E2.70178
G1 X120.81 Y112.811 E2.7596
G1 X120.823 Y113.417 E2.78783
G1 X120.815 Y114.069 E2.81819
G1 X120.766 Y114.782 E2.85147
G1 X120.638 Y115.486 E2.88479
G1 X120.432 Y116.171 E2.91809
G1 X120.151 Y116.829 E2.95141
G1 X119.798 Y117.451 E2.98471
G1 X119.379 Y118.03 E3.01799
G1 X118.897 Y118.559 E3.05131
G1 X118.359 Y119.03 E3.08461
G1 X117.772 Y119.439 E3.11792
G1 X117.143 Y119.779 E3.15122
G1 X116.48 Y120.048 E3.18453
G1 X115.791 Y120.24 E3.21784
G1 X115.085 Y120.355 E3.25115
G1 X114.425 Y120.399 E3.28195
G1 X112.981 Y120.398 E3.34919
G1 X112.372 Y120.389 E3.37755
G1 X111.659 Y120.339 E3.41083
G1 X110.956 Y120.209 E3.44412
G1 X110.253 Y119.995 E3.47834
G1 X108.137 Y119.23 E3.58311
G1 X105.602 Y118.336 E3.70827
G1 X103.093 Y117.531 E3.83097
G1 X100.506 Y116.781 E3.95639
G1 X98.002 Y116.131 E4.07685
G1 X96.617 Y115.819 E4.14296
G1 X96.402 Y115.758 E4.15336
G1 X94.979 Y115.429 E4.22137
G1 X94.162 Y115.17 E4.26128
G1 X93.651 Y114.992 E4.28648
G1 X92.989 Y114.719 E4.31982
G1 X92.363 Y114.374 E4.35311
G1 X91.778 Y113.962 E4.38642
G1 X91.244 Y113.487 E4.4197
G1 X90.766 Y112.955 E4.453
G1 X90.35 Y112.373 E4.48632
G1 X90.001 Y111.748 E4.51965
G1 X89.725 Y111.089 E4.55292
G1 X89.523 Y110.402 E4.58626
G1 X89.393 Y109.631 E4.62267
G1 X89.251 Y108.311 E4.68449
G1 X89.214 Y107.539 E4.72048
G1 X89.187 Y105.903 E4.79667
G1 X89.187 Y103.959 E4.88719
M204 S3000
M205 X10 Y10
G0 F3000 X89.747 Y103.967
M204 S1800
M205 X8 Y8
G1 F2400 X89.761 Y103.096 E4.92775
G1 X89.801 Y102.214 E4.96886
G1 X89.883 Y101.075 E5.02204
G1 X89.945 Y100.442 E5.05165
G1 X90.053 Y99.767 E5.08348
G1 X90.239 Y99.11 E5.11528
G1 X90.501 Y98.479 E5.14709
G1 X90.835 Y97.883 E5.1789
G1 X91.236 Y97.33 E5.21071
G1 X91.699 Y96.827 E5.24255
G1 X92.218 Y96.382 E5.27438
G1 X92.785 Y96.001 E5.30619
G1 X93.503 Y95.631 E5.3438
G1 X94.335 Y95.337 E5.38489
G1 X95.168 Y95.068 E5.42565
G1 X97.295 Y94.585 E5.52721
G1 X99.899 Y93.94 E5.65213
G1 X102.462 Y93.227 E5.77601
G1 X105.036 Y92.431 E5.90146
G1 X107.415 Y91.624 E6.01844
G1 X108.476 Y91.249 E6.07084
G1 X109.867 Y90.735 E6.13989
G1 X110.547 Y90.497 E6.17344
G1 X111.204 Y90.309 E6.20526
G1 X111.878 Y90.2 E6.23705
G1 X112.8 Y90.16 E6.28002
G1 X114.498 Y90.171 E6.35909
G1 X115.18 Y90.22 E6.39093
G1 X115.851 Y90.349 E6.42274
G1 X116.502 Y90.556 E6.45455
G1 X117.125 Y90.837 E6.48638
G1 X117.71 Y91.188 E6.51814
G1 X118.251 Y91.606 E6.54998
G1 X118.739 Y92.084 E6.58179
G1 X119.168 Y92.616 E6.61361
G1 X119.532 Y93.195 E6.64546
G1 X119.825 Y93.811 E6.67722
G1 X120.045 Y94.458 E6.70904
G1 X120.188 Y95.127 E6.74089
G1 X120.252 Y95.839 E6.77418
G1 X120.263 Y96.358 E6.79835
G1 X120.252 Y97.217 E6.83836
G1 X120.176 Y98.277 E6.88784
G1 X120.024 Y100.939 E7.012
G1 X119.946 Y103.581 E7.13507
G1 X119.944 Y106.256 E7.25963
G1 X120.017 Y108.927 E7.38405
G1 X120.169 Y111.642 E7.51067
G1 X120.25 Y112.827 E7.56598
G1 X120.263 Y113.41 E7.59313
G1 X120.255 Y114.062 E7.62349
G1 X120.206 Y114.743 E7.65529
G1 X120.079 Y115.414 E7.68709
G1 X119.874 Y116.066 E7.71891
G1 X119.594 Y116.689 E7.75072
G1 X119.243 Y117.276 E7.78256
G1 X118.826 Y117.817 E7.81437
G1 X118.349 Y118.306 E7.84618
G1 X117.818 Y118.736 E7.87799
G1 X117.24 Y119.101 E7.90982
G1 X116.624 Y119.396 E7.94163
G1 X115.978 Y119.617 E7.97342
G1 X115.31 Y119.761 E8.00524
G1 X114.457 Y119.839 E8.04512
G1 X112.99 Y119.838 E8.11343
G1 X112.381 Y119.829 E8.14179
G1 X111.699 Y119.779 E8.17364
G1 X111.028 Y119.65 E8.20545
G1 X110.447 Y119.469 E8.23379
G1 X108.32 Y118.701 E8.33909
G1 X105.782 Y117.806 E8.4644
G1 X103.243 Y116.992 E8.58856
G1 X100.659 Y116.242 E8.71384
G1 X98.144 Y115.589 E8.83484
G1 X96.74 Y115.273 E8.90185
G1 X96.523 Y115.211 E8.91236
G1 X95.351 Y114.94 E8.96837
G1 X94.755 Y114.779 E8.99712
G1 X93.835 Y114.463 E9.04241
G1 X93.204 Y114.201 E9.07423
G1 X92.608 Y113.867 E9.10604
G1 X92.055 Y113.466 E9.13785
G1 X91.553 Y113.002 E9.16968
G1 X91.108 Y112.484 E9.20148
G1 X90.727 Y111.917 E9.23329
G1 X90.415 Y111.309 E9.26511
G1 X90.175 Y110.669 E9.29693
G1 X89.982 Y109.88 E9.33476
G1 X89.81 Y108.28 E9.40969
G1 X89.768 Y107.318 E9.45453
G1 X89.747 Y105.903 E9.52042
G1 X89.747 Y103.967 E9.61057
M204 S3000
M205 X10 Y10
G0 F3000 X90.307 Y103.975
M204 S1800
M205 X8 Y8
G1 F2400 X90.321 Y103.12 E9.65039
G1 X90.36 Y102.254 E9.69075
G1 X90.479 Y100.64 E9.76611
G1 X90.607 Y99.857 E9.80305
G1 X90.79 Y99.234 E9.83329
G1 X91.048 Y98.637 E9.86357
G1 X91.377 Y98.077 E9.89382
G1 X91.773 Y97.562 E9.92407
G1 X92.228 Y97.099 E9.95429
G1 X92.738 Y96.696 E9.98456
G1 X93.293 Y96.358 E10.01482
G1 X93.997 Y96.05 E10.0506
G1 X94.935 Y95.723 E10.09686
G1 X95.539 Y95.558 E10.12601
G1 X97.442 Y95.126 E10.21688
G1 X100.015 Y94.488 E10.34032
G1 X102.643 Y93.757 E10.46733
G1 X105.194 Y92.969 E10.59166
G1 X107.628 Y92.143 E10.71134
G1 X108.637 Y91.786 E10.76118
G1 X110.052 Y91.263 E10.83142
G1 X110.732 Y91.025 E10.86497
G1 X111.357 Y90.849 E10.8952
G1 X111.999 Y90.751 E10.92545
G1 X112.799 Y90.72 E10.96272
G1 X114.49 Y90.731 E11.04147
G1 X115.138 Y90.78 E11.07173
G1 X115.775 Y90.908 E11.10198
G1 X116.391 Y91.114 E11.13223
G1 X116.977 Y91.393 E11.16245
G1 X117.525 Y91.743 E11.19272
G1 X118.025 Y92.157 E11.22295
G1 X118.471 Y92.63 E11.25322
G1 X118.855 Y93.153 E11.28344
G1 X119.173 Y93.72 E11.31371
G1 X119.418 Y94.322 E11.34397
G1 X119.587 Y94.949 E11.37421
G1 X119.708 Y95.981 E11.42259
G1 X119.692 Y97.203 E11.4795
G1 X119.618 Y98.237 E11.52777
G1 X119.465 Y100.89 E11.65151
G1 X119.386 Y103.6 E11.77775
G1 X119.384 Y106.27 E11.90208
G1 X119.457 Y108.939 E12.0264
G1 X119.609 Y111.657 E12.15316
G1 X119.691 Y112.844 E12.20857
G1 X119.703 Y113.403 E12.2346
G1 X119.695 Y114.055 E12.26496
G1 X119.647 Y114.703 E12.29522
G1 X119.52 Y115.34 E12.32547
G1 X119.315 Y115.956 E12.3557
G1 X119.037 Y116.543 E12.38594
G1 X118.688 Y117.091 E12.41619
G1 X118.275 Y117.593 E12.44646
G1 X117.803 Y118.039 E12.4767
G1 X117.28 Y118.425 E12.50697
G1 X116.714 Y118.743 E12.5372
G1 X116.113 Y118.99 E12.56745
G1 X115.486 Y119.16 E12.5977
G1 X114.478 Y119.279 E12.64497
G1 X112.998 Y119.278 E12.71388
G1 X112.389 Y119.269 E12.74224
G1 X111.741 Y119.22 E12.7725
G1 X110.958 Y119.061 E12.80971
G1 X109.962 Y118.694 E12.85913
G1 X105.962 Y117.276 E13.05675
G1 X103.393 Y116.452 E13.18237
G1 X100.82 Y115.706 E13.30712
G1 X98.251 Y115.038 E13.43072
G1 X96.863 Y114.726 E13.49696
G1 X96.677 Y114.672 E13.50598
G1 X95.274 Y114.348 E13.57303
G1 X94.53 Y114.112 E13.60937
G1 X94.019 Y113.934 E13.63457
G1 X93.42 Y113.683 E13.66481
G1 X92.856 Y113.36 E13.69508
G1 X92.336 Y112.971 E13.72531
G1 X91.868 Y112.521 E13.75555
G1 X91.459 Y112.016 E13.78581
G1 X91.115 Y111.465 E13.81605
G1 X90.841 Y110.876 E13.8463
G1 X90.641 Y110.258 E13.87655
G1 X90.506 Y109.511 E13.91189
G1 X90.369 Y108.239 E13.97147
G1 X90.333 Y107.485 E14.00662
G1 X90.307 Y105.903 E14.08029
G1 X90.307 Y103.975 E14.17007
M204 S3000
M205 X10 Y10
G1 F2400 E8.17007
G0 F3000 X95.726 Y103.389
M204 S1800
M205 X8 Y8
;TYPE:SUPPORT
G1 F2400 E14.17007
G1 F2100 X95.727 Y106.611 E14.27723
G1 X95.768 Y106.684 E14.28001
G1 X95.767 Y107.832 E14.3182
G1 X95.884 Y108.397 E14.33739
G1 X95.888 Y108.855 E14.35262
G1 X96.625 Y109.1 E14.37845
G1 X97 Y108.938 E14.39204
G1 X97.138 Y108.936 E14.39663
G1 X97.618 Y109.102 E14.41352
G1 X97.624 Y109.087 E14.41406
G1 X97.486 Y107.542 E14.46565
G1 X97.486 Y102.433 E14.63558
G1 X97.628 Y100.87 E14.68778
G1 X97.175 Y101.028 E14.70373
G1 X97.038 Y101.026 E14.70829
G1 X96.656 Y100.86 E14.72214
G1 X95.886 Y101.118 E14.74915
G1 X95.886 Y102.116 E14.78235
G1 X95.766 Y102.506 E14.79592
G1 X95.764 Y103.311 E14.82269
G1 X95.726 Y103.389 E14.82558
M204 S3000
M205 X10 Y10
G0 F3000 X96 Y102.214
M204 S1800
M205 X8 Y8
G1 F1500 X96 Y108.268 E15.10748
M204 S3000
M205 X10 Y10
G1 F2400 E9.10748
G0 F3000 X97.349 Y102.393
M204 S1800
M205 X8 Y8
G1 F2400 E15.10748
G1 F1500 X96.024 Y101.628 E15.17872
G1 X96.025 Y101.598
G1 X96.873 Y101.109 E15.2243
M204 S3000
M205 X10 Y10
G1 F2400 E9.2243
G0 F3000 X110.124 Y97.041
M204 S1800
M205 X8 Y8
G1 F2400 E15.2243
G1 F2100 X110.124 Y112.959 E15.75374
G1 X111.444 Y112.96 E15.79764
G1 X111.623 Y112.915 E15.80378
G1 X111.624 Y112.327 E15.82334
G1 X111.703 Y112.198 E15.82837
G1 X111.802 Y112.16 E15.8319
G1 X113.284 Y112.16 E15.88119
G1 X113.284 Y111.65 E15.89815
G1 X113.283 Y111.14 E15.91511
G1 X112.329 Y111.14 E15.94684
G1 X112.202 Y111.095 E15.95132
G1 X111.921 Y110.812 E15.96459
G1 X111.885 Y110.729 E15.9676
G1 X111.883 Y99.306 E16.34753
G1 X111.921 Y99.188 E16.35165
G1 X112.202 Y98.904 E16.36494
G1 X112.294 Y98.862 E16.3683
G1 X113.283 Y98.86 E16.4012
G1 X113.283 Y97.84 E16.43512
G1 X111.803 Y97.84 E16.48435
G1 X111.705 Y97.802 E16.48784
G1 X111.626 Y97.675 E16.49282
G1 X111.624 Y97.086 E16.51241
G1 X111.441 Y97.04 E16.51868
G1 X110.124 Y97.041 E16.56249
M204 S3000
M205 X10 Y10
G0 F3000 X112 Y97.98
M204 S1800
M205 X8 Y8
G1 F1500 X112 Y98.91 E16.60579
M204 S3000
M205 X10 Y10
G0 F3000 X110.263 Y100.61
M204 S1800
M205 X8 Y8
G1 F1500 X111.743 Y101.465 E16.68538
M204 S3000
M205 X10 Y10
G0 F3000 X111.742 Y101.762
M204 S1800
M205 X8 Y8
G1 F1500 X110.263 Y102.616 E16.76491
M204 S3000
M205 X10 Y10
G1 F2400 E10.76491
G0 F3000 X110.263 Y109.848
M204 S1800
M205 X8 Y8
G1 F2400 E16.76491
G1 F1500 X111.747 Y110.705 E16.8447
G1 X111.849 Y110.937
G1 X110.263 Y111.853 E16.92998
M204 S3000
M205 X10 Y10
G0 F3000 X112 Y112.021
M204 S1800
M205 X8 Y8
G1 F1500 X112 Y111.09 E16.97334
M204 S3000
M205 X10 Y10
G0 F3000 X112.741 Y111.279
M204 S1800
M205 X8 Y8
G1 F1500 X113.143 Y111.511 E16.99495
M204 S3000
M205 X10 Y10
G1 F2400 E10.99495
G0 F3000 X114.204 Y96.781
M204 S1800
M205 X8 Y8
G1 F2400 E16.99495
G1 F1505.4 X114.204 Y96.219 E17.02102
M204 S3000
M205 X10 Y10
G1 F2400 E11.02102
G0 F3000 X114.204 Y113.219
M204 S1800
M205 X8 Y8
G1 F2400 E17.02102
G1 F1502.7 X114.205 Y113.781 E17.04715
M204 S3000
M205 X10 Y10
;MESH:???????????? v3.stl
G0 F3000 X112.724 Y113.74
M204 S1800
M205 X8 Y8
;TYPE:WALL-OUTER
G1 F1609.2 X112.724 Y113.26 E17.06798
M204 S3000
M205 X10 Y10
G1 F2400 E11.06798
G0 F3000 X112.724 Y112.335
G0 X112.724 Y97.665
G0 X112.724 Y96.74
M204 S1800
M205 X8 Y8
G1 F2400 E17.06798
G1 F1615.4 X112.724 Y96.26 E17.08874
M204 S3000
M205 X10 Y10
G1 F2400 E11.08874
;MESH:NONMESH
G0 F600 X112.724 Y96.26 Z0.4
G0 F3000 X111.799 Y96.26
G0 X95.887 Y101.118
;TIME_ELAPSED:19.875066
;LAYER:1
M106 S127.5
M204 S1800
M205 X8 Y8
;TYPE:SUPPORT
G1 F2400 E17.08874
G1 F1650 X95.886 Y102.116 E17.12193
G1 X95.766 Y102.506 E17.1355
G1 X95.764 Y103.311 E17.16227
G1 X95.726 Y103.389 E17.16516
G1 X95.727 Y106.61 E17.27229
G1 X95.768 Y106.683 E17.27508
G1 X95.767 Y107.832 E17.31329
G1 X95.887 Y108.418 E17.33319
G1 X95.888 Y108.854 E17.34769
G1 X96.623 Y109.1 E17.37347
G1 X96.996 Y108.937 E17.38701
G1 X97.135 Y108.935 E17.39163
G1 X97.619 Y109.101 E17.40865
G1 X97.624 Y109.087 E17.40914
G1 X97.486 Y107.542 E17.46073
G1 X97.486 Y102.433 E17.63066
G1 X97.628 Y100.869 E17.68289
G1 X97.172 Y101.03 E17.69898
G1 X97.034 Y101.028 E17.70357
G1 X96.653 Y100.861 E17.7174
G1 X95.887 Y101.118 E17.74428
M204 S3000
M205 X10 Y10
G0 F4500 X96.026 Y101.598
M204 S1800
M205 X8 Y8
G1 F1650 X96.869 Y101.111 E17.77666
M204 S3000
M205 X10 Y10
G0 F4500 X96.025 Y101.628
M204 S1800
M205 X8 Y8
G1 F1650 X97.349 Y102.393 E17.82752
M204 S3000
M205 X10 Y10
G0 F4500 X96 Y102.214
M204 S1800
M205 X8 Y8
G1 F1650 X96 Y108.274 E18.02907
M204 S3000
M205 X10 Y10
G1 F2400 E12.02907
G0 F4500 X110.123 Y112.96
M204 S1800
M205 X8 Y8
G1 F2400 E18.02907
G1 F1650 X111.442 Y112.96 E18.07294
G1 X111.583 Y112.924 E18.07778
G1 X111.583 Y112.331 E18.09751
G1 X111.669 Y112.194 E18.10289
G1 X111.771 Y112.16 E18.10646
G1 X112.773 Y112.16 E18.13979
G1 F1701 X113.267 Y112.196 E18.15577
G1 F1843.6 X113.375 Y112.36 E18.16161
G1 X113.32 Y112.143 E18.16828
G1 F1701 X113.284 Y111.65 E18.18423
G1 F1650 X113.283 Y111.14 E18.20119
G1 X112.329 Y111.14 E18.23292
G1 X112.194 Y111.089 E18.23772
G1 X111.919 Y110.81 E18.25075
G1 X111.885 Y110.729 E18.25367
G1 X111.883 Y99.306 E18.6336
G1 X111.919 Y99.19 E18.63764
G1 X112.195 Y98.911 E18.65069
G1 X112.294 Y98.862 E18.65437
G1 X113.283 Y98.86 E18.68726
G1 X113.283 Y98.35 E18.70422
G1 F1709.8 X113.324 Y97.856 E18.72013
G1 F1853.9 X113.376 Y97.658 E18.72619
G1 X113.268 Y97.8 E18.73147
G1 F1709.8 X112.773 Y97.84 E18.74741
G1 F1650 X111.773 Y97.84 E18.78067
G1 X111.67 Y97.805 E18.78429
G1 X111.586 Y97.675 E18.78944
G1 X111.584 Y97.076 E18.80936
G1 X111.443 Y97.04 E18.8142
G1 X110.123 Y97.04 E18.85811
G1 X110.123 Y112.96 E19.38761
M204 S3000
M205 X10 Y10
G1 F2400 E13.38761
G0 F4500 X112.837 Y113.414
G0 X113.376 Y112.752
M204 S1800
M205 X8 Y8
G1 F2400 E19.38761
G1 F1941.2 X113.375 Y112.36 E19.39869
M204 S3000
M205 X10 Y10
G1 F2400 E13.39869
G0 F4500 X113.376 Y97.658
M204 S1800
M205 X8 Y8
G1 F2400 E19.39869
G1 F1941.2 X113.376 Y97.248 E19.41028
M204 S3000
M205 X10 Y10
G1 F2400 E13.41028
G0 F4500 X113.376 Y96.5
G0 X112 Y97.981
M204 S1800
M205 X8 Y8
G1 F2400 E19.41028
G1 F1650 X112 Y98.91 E19.44118
M204 S3000
M205 X10 Y10
G0 F4500 X110.262 Y100.61
M204 S1800
M205 X8 Y8
G1 F1650 X111.743 Y101.465 E19.49806
M204 S3000
M205 X10 Y10
G0 F4500 X111.742 Y101.762
M204 S1800
M205 X8 Y8
G1 F1650 X110.262 Y102.616 E19.55489
M204 S3000
M205 X10 Y10
G1 F2400 E13.55489
G0 F4500 X110.262 Y109.848
M204 S1800
M205 X8 Y8
G1 F2400 E19.55489
G1 F1650 X111.747 Y110.705 E19.61192
M204 S3000
M205 X10 Y10
G0 F4500 X111.85 Y110.937
M204 S1800
M205 X8 Y8
G1 F1650 X110.262 Y111.854 E19.67291
M204 S3000
M205 X10 Y10
G0 F4500 X112 Y112.02
M204 S1800
M205 X8 Y8
G1 F1650 X112 Y111.092 E19.70377
M204 S3000
M205 X10 Y10
G0 F4500 X112.741 Y111.279
M204 S1800
M205 X8 Y8
G1 F1650 X113.143 Y111.511 E19.71921
M204 S3000
M205 X10 Y10
G1 F2400 E13.71921
;MESH:???????????? v3.stl
G0 F4500 X113.143 Y113.42
G0 X112.674 Y113.25
M204 S1800
M205 X8 Y8
;TYPE:WALL-OUTER
G1 F2400 E19.71921
G1 F1800 X112.674 Y113.75 E19.74
G1 X113.736 Y113.75 E19.78415
