;FLAVOR:Marlin
;TIME:2461
;Filament used: 2.73814m
;Layer height: 0.2
;MINX:89.572
;MINY:73.698
;MINZ:0.2
;MAXX:120.432
;MAXY:142.822
;MAXZ:18.275
;Generated with Cura_SteamEngine main
M140 S60
M105
M190 S60
M104 S200
M105
M109 S200
M82 ;absolute extrusion mode
G21 ;metric values
G90 ;absolute positioning
M82 ;set extruder to absolute mode
M107 ;start with the fan off
G28 X0 Y0 ;move X/Y to min endstops
G28 Z0 ;move Z to min endstops
G1 Z15.0 F100 ;move the platform down 15mm
G92 E0 ;zero the extruded length
G1 F200 E3 ;extrude 3mm of feed stock
G92 E0 ;zero the extruded length again
G1 F100
G0 Y20 F100
M117 Printing...
G5
G92 E0
G92 E0
G1 F2400 E-6
;LAYER_COUNT:91
;LAYER:0
M107
M204 S3000
M205 X10 Y10
G1 F600 Z0.275
G0 F3000 X92.084 Y108.426 Z0.275
G1 F600 Z0.2
G0 F3000 X89.572 Y113.359
M204 S1800
M205 X8 Y8
;TYPE:SKIRT
G1 F2400 E0
G1 X89.629 Y112.646 E0.03331
G1 X89.765 Y111.943 E0.06665
G1 X89.979 Y111.261 E0.09993
G1 X90.267 Y110.606 E0.13325
G1 X90.627 Y109.988 E0.16655
G1 X91.053 Y109.414 E0.19984
G1 X91.541 Y108.891 E0.23314
G1 X92.084 Y108.426 E0.26643
G1 X92.676 Y108.024 E0.29975
G1 X93.309 Y107.69 E0.33308
G1 X93.975 Y107.43 E0.36637
G1 X94.666 Y107.245 E0.39968
G1 X95.713 Y107.116 E0.4488
G1 X97.114 Y107.06 E0.51409
G1 X98.246 Y107.029 E0.56682
G1 X98.795 Y107.038 E0.59239
G1 X99.809 Y107.097 E0.63968
G1 X102.527 Y107.217 E0.76637
G1 X105.139 Y107.258 E0.88801
G1 X107.812 Y107.225 E1.01248
G1 X111.473 Y107.07 E1.18311
G1 X111.991 Y107.063 E1.20723
G1 X113.514 Y107.082 E1.27815
G1 X114.209 Y107.101 E1.31053
G1 X114.922 Y107.161 E1.34385
G1 X115.623 Y107.299 E1.37711
G1 X116.305 Y107.516 E1.41044
G1 X116.959 Y107.806 E1.44375
G1 X117.576 Y108.168 E1.47706
G1 X118.148 Y108.597 E1.51036
G1 X118.67 Y109.086 E1.54366
G1 X119.133 Y109.631 E1.57696
G1 X119.533 Y110.224 E1.61027
G1 X119.864 Y110.858 E1.64357
G1 X120.122 Y111.526 E1.67691
G1 X120.304 Y112.217 E1.71019
G1 X120.408 Y112.925 E1.74351
G1 X120.432 Y113.64 E1.77682
G1 X120.369 Y114.462 E1.81521
G1 X120.168 Y115.449 E1.86211
G1 X115.412 Y137.072 E2.89304
G1 X115.225 Y137.872 E2.93129
G1 X115.024 Y138.559 E2.96462
G1 X114.747 Y139.218 E2.99791
G1 X114.398 Y139.843 E3.03124
G1 X113.982 Y140.424 E3.06452
G1 X113.504 Y140.956 E3.09782
G1 X112.969 Y141.431 E3.13113
G1 X112.385 Y141.843 E3.16441
G1 X111.758 Y142.188 E3.19773
G1 X111.096 Y142.46 E3.23106
G1 X110.409 Y142.657 E3.26434
G1 X109.704 Y142.776 E3.29763
G1 X109.097 Y142.815 E3.32595
G1 X108.459 Y142.822 E3.35566
G1 X107.9 Y142.813 E3.3817
G1 X107.187 Y142.762 E3.41498
G1 X106.483 Y142.631 E3.44833
G1 X105.799 Y142.423 E3.48162
G1 X105.142 Y142.139 E3.51494
G1 X104.521 Y141.784 E3.54825
G1 X103.944 Y141.362 E3.58154
G1 X103.258 Y140.709 E3.62564
G1 X102.695 Y140.087 E3.66471
G1 X100.902 Y138.163 E3.78717
G1 X99.029 Y136.264 E3.91137
G1 X97.114 Y134.428 E4.0349
G1 X95.824 Y133.25 E4.11624
G1 X94.786 Y132.32 E4.18114
G1 X94.281 Y131.813 E4.21446
G1 X93.836 Y131.254 E4.24773
G1 X93.455 Y130.648 E4.28106
G1 X93.145 Y130.004 E4.31434
G1 X92.848 Y129.105 E4.35843
G1 X92.723 Y128.596 E4.38283
G1 X89.847 Y115.518 E5.00635
G1 X89.697 Y114.781 E5.04137
G1 X89.595 Y114.074 E5.07463
G1 X89.572 Y113.359 E5.10794
M204 S3000
M205 X10 Y10
G0 F3000 X90.133 Y113.311
M204 S1800
M205 X8 Y8
G1 F2400 X90.197 Y112.631 E5.13975
G1 X90.339 Y111.962 E5.17159
G1 X90.559 Y111.315 E5.20341
G1 X90.852 Y110.698 E5.23522
G1 X91.216 Y110.12 E5.26703
G1 X91.644 Y109.588 E5.29882
G1 X92.132 Y109.109 E5.33066
G1 X92.672 Y108.691 E5.36246
G1 X93.258 Y108.339 E5.39429
G1 X93.88 Y108.058 E5.42607
G1 X94.532 Y107.851 E5.45792
G1 X95.202 Y107.722 E5.4897
G1 X95.736 Y107.676 E5.51465
G1 X97.129 Y107.62 E5.57957
G1 X98.261 Y107.589 E5.6323
G1 X98.762 Y107.597 E5.65563
G1 X99.821 Y107.659 E5.70503
G1 X102.493 Y107.776 E5.82957
G1 X105.137 Y107.818 E5.9527
G1 X107.841 Y107.785 E6.07862
G1 X110.515 Y107.675 E6.20323
G1 X111.302 Y107.636 E6.23992
G1 X111.985 Y107.623 E6.27173
G1 X113.499 Y107.642 E6.34224
G1 X114.194 Y107.661 E6.37461
G1 X114.874 Y107.72 E6.40639
G1 X115.544 Y107.857 E6.43824
G1 X116.192 Y108.072 E6.47003
G1 X116.811 Y108.362 E6.50186
G1 X117.392 Y108.721 E6.53366
G1 X117.927 Y109.146 E6.56548
G1 X118.409 Y109.63 E6.59728
G1 X118.831 Y110.168 E6.62912
G1 X119.187 Y110.751 E6.66093
G1 X119.473 Y111.371 E6.69272
G1 X119.684 Y112.021 E6.72454
G1 X119.818 Y112.691 E6.75636
G1 X119.873 Y113.372 E6.78817
G1 X119.847 Y114.055 E6.82
G1 X119.757 Y114.663 E6.84862
G1 X119.621 Y115.329 E6.88027
G1 X114.848 Y137.026 E7.91473
G1 X114.68 Y137.745 E7.94911
G1 X114.486 Y138.4 E7.98092
G1 X114.216 Y139.028 E8.01275
G1 X113.876 Y139.62 E8.04454
G1 X113.468 Y140.168 E8.07635
G1 X112.999 Y140.665 E8.10817
G1 X112.476 Y141.104 E8.13997
G1 X111.904 Y141.479 E8.17182
G1 X111.293 Y141.784 E8.20362
G1 X110.65 Y142.016 E8.23545
G1 X109.985 Y142.171 E8.26724
G1 X109.088 Y142.255 E8.30919
G1 X108.468 Y142.262 E8.33806
G1 X107.909 Y142.253 E8.3641
G1 X107.228 Y142.202 E8.3959
G1 X106.557 Y142.072 E8.42772
G1 X105.906 Y141.865 E8.45953
G1 X105.284 Y141.582 E8.49135
G1 X104.699 Y141.229 E8.52316
G1 X104.159 Y140.811 E8.55496
G1 X103.673 Y140.333 E8.5867
G1 X103.136 Y139.74 E8.62396
G1 X101.277 Y137.745 E8.75093
G1 X99.437 Y135.879 E8.87296
G1 X97.506 Y134.028 E8.99751
G1 X96.156 Y132.795 E9.08265
G1 X95.16 Y131.903 E9.1449
G1 X94.679 Y131.418 E9.17671
G1 X94.257 Y130.88 E9.20855
G1 X93.902 Y130.297 E9.24033
G1 X93.616 Y129.676 E9.27217
G1 X93.391 Y128.969 E9.30672
G1 X93.27 Y128.475 E9.3304
G1 X90.374 Y115.302 E9.95844
G1 X90.246 Y114.67 E9.98846
G1 X90.15 Y113.994 E10.02026
G1 X90.133 Y113.311 E10.05207
M204 S3000
M205 X10 Y10
G0 F3000 X90.696 Y113.266
M204 S1800
M205 X8 Y8
G1 F2400 X90.766 Y112.62 E10.08233
G1 X90.914 Y111.988 E10.11255
G1 X91.14 Y111.379 E10.1428
G1 X91.438 Y110.802 E10.17304
G1 X91.805 Y110.266 E10.20329
G1 X92.235 Y109.779 E10.23354
G1 X92.722 Y109.348 E10.26382
G1 X93.258 Y108.981 E10.29407
G1 X93.834 Y108.682 E10.32429
G1 X94.444 Y108.456 E10.35458
G1 X95.076 Y108.307 E10.38481
G1 X95.758 Y108.235 E10.41675
G1 X97.144 Y108.18 E10.48133
G1 X98.502 Y108.143 E10.54459
G1 X99.761 Y108.216 E10.60331
G1 X102.496 Y108.336 E10.73079
G1 X105.135 Y108.378 E10.85369
G1 X107.836 Y108.345 E10.97947
G1 X110.561 Y108.233 E11.10646
G1 X111.329 Y108.195 E11.14227
G1 X111.978 Y108.183 E11.17249
G1 X113.483 Y108.202 E11.24258
G1 X114.178 Y108.221 E11.27495
G1 X114.825 Y108.279 E11.3052
G1 X115.46 Y108.415 E11.33544
G1 X116.074 Y108.629 E11.36572
G1 X116.656 Y108.916 E11.39593
G1 X117.199 Y109.273 E11.42619
G1 X117.694 Y109.694 E11.45645
G1 X118.134 Y110.172 E11.4867
G1 X118.511 Y110.701 E11.51695
G1 X118.821 Y111.272 E11.5472
G1 X119.059 Y111.876 E11.57743
G1 X119.22 Y112.506 E11.60771
G1 X119.302 Y113.15 E11.63794
G1 X119.305 Y113.8 E11.66821
G1 X119.208 Y114.552 E11.70351
G1 X119.074 Y115.208 E11.73469
G1 X114.303 Y136.898 E12.76881
G1 X114.135 Y137.617 E12.80319
G1 X113.948 Y138.24 E12.83348
G1 X113.687 Y138.834 E12.86369
G1 X113.354 Y139.392 E12.89395
G1 X112.956 Y139.905 E12.92419
G1 X112.497 Y140.366 E12.95448
G1 X111.986 Y140.766 E12.98469
G1 X111.429 Y141.101 E13.01496
G1 X110.835 Y141.364 E13.04521
G1 X110.213 Y141.553 E13.07548
G1 X109.417 Y141.691 E13.1131
G1 X108.477 Y141.702 E13.15687
G1 X107.918 Y141.693 E13.1829
G1 X107.27 Y141.643 E13.21317
G1 X106.634 Y141.513 E13.24339
G1 X106.018 Y141.307 E13.27364
G1 X105.432 Y141.026 E13.3039
G1 X104.885 Y140.675 E13.33416
G1 X104.289 Y140.18 E13.37024
G1 X103.577 Y139.392 E13.41969
G1 X101.692 Y137.369 E13.54845
G1 X99.81 Y135.461 E13.67324
G1 X97.875 Y133.606 E13.79805
G1 X96.534 Y132.381 E13.88263
G1 X95.534 Y131.485 E13.94515
G1 X95.077 Y131.023 E13.97541
G1 X94.681 Y130.508 E14.00566
G1 X94.352 Y129.948 E14.0359
G1 X94.093 Y129.352 E14.06616
G1 X93.89 Y128.685 E14.09863
G1 X90.923 Y115.191 E14.74197
G1 X90.795 Y114.559 E14.772
G1 X90.706 Y113.916 E14.80223
G1 X90.696 Y113.266 E14.8325
M204 S3000
M205 X10 Y10
G1 F2400 E8.8325
;MESH:maaya2.stl
G0 F3000 X95.417 Y114.138
G0 X96.469 Y113.907
G1 F2400 E14.8325
G0 F3000 X97.044 Y114.358
M204 S1800
M205 X8 Y8
;TYPE:WALL-INNER
G1 F1530.1 X97.148 Y114.871 E14.85639
G1 F1552.7 X97.252 Y115.385 E14.87998
G1 F1573 X97.357 Y115.898 E14.90323
G1 F1597 X97.461 Y116.412 E14.92617
G1 F1618.5 X97.565 Y116.925 E14.94876
G1 F1640.6 X97.67 Y117.439 E14.97109
G1 F1666.7 X97.774 Y117.952 E14.99303
G1 F1690.1 X97.879 Y118.466 E15.01471
G1 F1717.8 X97.983 Y118.979 E15.03599
G1 F1728.4 X97.983 Y118.977 E15.03607
G1 F1169.9 X98.293 Y119.317 E15.06354
G1 X98.46 Y118.888 E15.09103
G1 F1703.9 X98.374 Y118.384 E15.11198
G1 F1653.5 X98.288 Y117.879 E15.13362
G1 F1606.1 X98.202 Y117.374 E15.1559
G1 F1561.3 X98.115 Y116.869 E15.17882
G1 F1519 X98.029 Y116.365 E15.20233
G1 F1481.5 X97.943 Y115.86 E15.22649
G1 F1443.3 X97.857 Y115.355 E15.25128
G1 F1407 X97.77 Y114.85 E15.27671
G1 F1372.5 X97.684 Y114.345 E15.30278
G1 F1433.4 X97.044 Y114.358 E15.33397
M204 S3000
M205 X10 Y10
G0 F3000 X96.306 Y113.777
M204 S1800
M205 X8 Y8
;TYPE:WALL-OUTER
G1 F1500 X97.473 Y119.089 E15.58722
G1 X99.264 Y127.225 E15.97514
G1 X100.25 Y127.007 E16.02216
G1 X98.183 Y113.715 E16.64853
G1 X97.486 Y113.763 E16.68106
G1 X96.306 Y113.777 E16.73601
M204 S3000
M205 X10 Y10
G0 F3000 X96.348 Y113.972
G0 X97.027 Y114.351
G0 X98.293 Y119.317
M204 S1800
M205 X8 Y8
;TYPE:WALL-INNER
G1 F900.3 X98.39 Y119.837 E16.77705
G1 F934.4 X98.488 Y120.358 E16.81668
G1 F970 X98.586 Y120.879 E16.85485
G1 F1008.4 X98.683 Y121.4 E16.89156
G1 F1051.3 X98.781 Y121.921 E16.92678
G1 F1096.6 X98.879 Y122.442 E16.96055
G1 F1147.5 X98.977 Y122.963 E16.99281
G1 F1201.7 X99.074 Y123.484 E17.02361
G1 F1263.2 X99.172 Y124.005 E17.05293
G1 F1329.1 X99.27 Y124.526 E17.08079
G1 F1402.3 X99.367 Y125.047 E17.10718
G1 F1486.7 X99.465 Y125.568 E17.13209
G1 F1578.9 X99.563 Y126.088 E17.1555
G1 F1686.7 X99.661 Y126.609 E17.17745
M204 S3000
M205 X10 Y10
G1 F2400 E11.17745
G0 F3000 X99.641 Y126.505
G0 X99.167 Y120.821
G0 X100.219 Y120.657
G0 X109.504 Y122.431
G0 X110.575 Y122.597
G0 X111.637 Y118.881
G1 F2400 E17.17745
G0 F3000 X111.545 Y118.866
M204 S1800
M205 X8 Y8
G1 F1176.5 X111.71 Y119.295 E17.20474
G1 X112.02 Y118.955 E17.23205
G1 F1707.3 X112.127 Y118.425 E17.25417
G1 F1650.3 X112.235 Y117.895 E17.27707
G1 F1597 X112.343 Y117.365 E17.30072
G1 F1547 X112.451 Y116.835 E17.32514
G1 F1502.7 X112.559 Y116.304 E17.35033
G1 F1458.3 X112.667 Y115.774 E17.37624
G1 F1416.5 X112.775 Y115.244 E17.40291
G1 F1377 X112.883 Y114.714 E17.43034
G1 F1357 X112.965 Y114.346 E17.44975
G1 X112.316 Y114.338 E17.48315
G1 F1374.8 X112.231 Y114.84 E17.50902
G1 F1409.4 X112.145 Y115.343 E17.53431
G1 F1445.8 X112.06 Y115.846 E17.55896
G1 F1484.1 X111.974 Y116.349 E17.58297
G1 F1524.5 X111.888 Y116.851 E17.60631
G1 F1567.2 X111.803 Y117.354 E17.62904
G1 F1612.3 X111.717 Y117.857 E17.65115
G1 F1660.1 X111.632 Y118.36 E17.67261
G1 F1710.8 X111.546 Y118.863 E17.69345
M204 S3000
M205 X10 Y10
G0 F3000 X111.638 Y118.878
G0 X110.342 Y126.586
G0 X109.916 Y126.706
M204 S1800
M205 X8 Y8
;TYPE:WALL-OUTER
G1 F1068.7 X109.831 Y127.203 E17.7264
G1 F1089.5 X109.746 Y127.701 E17.75879
G1 F1111.1 X109.661 Y128.199 E17.79055
G1 F1133.6 X109.576 Y128.697 E17.82167
G1 F1157 X109.491 Y129.194 E17.85211
G1 F1183.1 X109.405 Y129.692 E17.88195
G1 F1208.6 X109.32 Y130.19 E17.91114
G1 F1235.3 X109.235 Y130.688 E17.93971
G1 F1263.2 X109.15 Y131.186 E17.96764
G1 F1292.3 X109.065 Y131.683 E17.99489
G1 F1322.8 X108.979 Y132.181 E18.02158
G1 F1354.8 X108.894 Y132.679 E18.04762
G1 F1388.4 X108.809 Y133.177 E18.07304
G1 F1423.7 X108.724 Y133.675 E18.09782
G1 F1463.4 X108.639 Y134.172 E18.12189
G1 F1502.7 X108.553 Y134.67 E18.14538
G1 F1544.1 X108.468 Y135.168 E18.16823
G1 F1587.9 X108.383 Y135.666 E18.19045
G1 F1634.2 X108.298 Y136.164 E18.21204
G1 F1656.8 X108.796 Y136.172 E18.23304
G1 F1634.2 X108.896 Y135.682 E18.25441
G1 F1587.9 X108.996 Y135.191 E18.27646
G1 F1544.1 X109.096 Y134.7 E18.29912
G1 F1502.7 X109.196 Y134.209 E18.32241
G1 F1463.4 X109.296 Y133.718 E18.34633
G1 F1423.7 X109.396 Y133.227 E18.37091
G1 F1388.4 X109.496 Y132.736 E18.39612
G1 F1354.8 X109.597 Y132.245 E18.42196
G1 F1322.8 X109.697 Y131.754 E18.44842
G1 F1292.3 X109.797 Y131.263 E18.4755
G1 F1263.2 X109.897 Y130.772 E18.50321
G1 F1235.3 X109.997 Y130.281 E18.53154
G1 F1208.6 X110.097 Y129.79 E18.5605
G1 F1183.1 X110.197 Y129.299 E18.59008
G1 F1157 X110.298 Y128.808 E18.62034
G1 F1133.6 X110.398 Y128.317 E18.65121
G1 F1111.1 X110.498 Y127.827 E18.68265
G1 F1089.5 X110.598 Y127.336 E18.71477
G1 F1068.7 X110.698 Y126.845 E18.74752
G1 F1240.8 X110.897 Y126.488 E18.77053
G1 F1500 X113.697 Y113.765 E19.37714
G1 X111.813 Y113.743 E19.46488
G1 X109.861 Y126.294 E20.05633
G1 F1240.8 X109.916 Y126.706 E20.07973
M204 S3000
M205 X10 Y10
G0 F3000 X109.883 Y126.903
G0 X110.382 Y126.375
M204 S1800
M205 X8 Y8
;TYPE:WALL-INNER
G1 F1647.1 X110.476 Y125.869 E20.10155
G1 F1549.8 X110.571 Y125.363 E20.12475
G1 F1463.4 X110.666 Y124.857 E20.14933
G1 F1386.1 X110.761 Y124.351 E20.17527
G1 F1316.6 X110.856 Y123.844 E20.20263
G1 F1253.7 X110.951 Y123.338 E20.23132
G1 F1196.6 X111.046 Y122.832 E20.26137
G1 F1142.9 X111.141 Y122.326 E20.29283
G1 F1095.2 X111.236 Y121.82 E20.32567
G1 F1051.3 X111.331 Y121.313 E20.35994
G1 F1010.8 X111.426 Y120.807 E20.39551
G1 F973.3 X111.521 Y120.301 E20.43246
G1 F938.5 X111.616 Y119.795 E20.47077
G1 F906.1 X111.711 Y119.289 E20.51045
M204 S3000
M205 X10 Y10
G1 F2400 E14.51045
;MESH:NONMESH
G0 F600 X111.711 Y119.289 Z0.4
G0 F3000 X113.534 Y113.895
G0 X113.546 Y112.817
G0 X115.967 Y91.168
;TIME_ELAPSED:20.117937
;LAYER:1
M106 S127.5
M204 S1800
M205 X8 Y8
;TYPE:WALL-INNER
;MESH:maaya2.stl
G1 F2400 E20.51045
G1 F2250 X116.003 Y91.492 E20.5213
G1 X113.519 Y107.467 E21.05901
G1 F1818.2 X113.552 Y107.876 E21.0759
G1 F1546.4 X113.464 Y108.392 E21.10123
G1 F1590.1 X113.375 Y108.909 E21.12592
G1 F1636.4 X113.287 Y109.425 E21.14986
G1 F1688.6 X113.198 Y109.942 E21.17311
G1 F1740.8 X113.11 Y110.458 E21.19561
G1 F1796.4 X113.021 Y110.975 E21.21747
G1 F1859.5 X112.933 Y111.491 E21.23853
G1 F1923.1 X112.844 Y112.008 E21.25895
G1 F1991.2 X112.756 Y112.524 E21.27862
G1 F2069 X112.667 Y113.041 E21.2976
G1 F2148 X112.579 Y113.557 E21.31583
G1 F2233.3 X112.49 Y114.074 E21.33341
G1 F2331.6 X112.402 Y114.59 E21.35021
G1 F2432.4 X112.313 Y115.107 E21.36635
G1 F2542.4 X112.225 Y115.623 E21.38176
G1 F1775.1 X112.322 Y116.037 E21.39969
G1 X112.565 Y115.682 E21.41782
G1 F2542.4 X112.669 Y115.169 E21.43323
G1 F2432.4 X112.774 Y114.656 E21.44934
G1 F2331.6 X112.878 Y114.142 E21.46617
G1 F2233.3 X112.983 Y113.629 E21.48372
G1 F2148 X113.088 Y113.115 E21.502
G1 F2069 X113.192 Y112.602 E21.52093
G1 F1991.2 X113.297 Y112.088 E21.54065
G1 F1923.1 X113.402 Y111.575 E21.56102
G1 F1859.5 X113.506 Y111.061 E21.58213
G1 F1796.4 X113.611 Y110.548 E21.60394
G1 F1740.8 X113.716 Y110.034 E21.6265
G1 F1688.6 X113.82 Y109.521 E21.64969
G1 F1636.4 X113.925 Y109.008 E21.67364
G1 F1590.1 X114.03 Y108.494 E21.69833
G1 F1546.4 X114.134 Y107.981 E21.72366
G1 F1818.2 X114.312 Y107.615 E21.74041
G1 F2250 X118.889 Y86.817 E22.44871
G1 X118.519 Y87.281 E22.46845
G1 X118 Y87.425 E22.48636
G1 X92 Y87.425 E23.35113
G1 X91.482 Y87.281 E23.36901
G1 X91.114 Y86.851 E23.38783
G1 X95.684 Y107.612 E24.09488
G1 F1810.9 X95.865 Y107.98 E24.11183
G1 F1535.8 X95.969 Y108.493 E24.13733
G1 F1578.9 X96.074 Y109.006 E24.16215
G1 F1624.5 X96.179 Y109.52 E24.18632
G1 F1676 X96.283 Y110.033 E24.20969
G1 F1727.4 X96.388 Y110.547 E24.23241
G1 F1782.2 X96.493 Y111.06 E24.2544
G1 F1844.3 X96.597 Y111.574 E24.27568
G1 F1906.8 X96.702 Y112.087 E24.29623
G1 F1973.7 X96.807 Y112.601 E24.31612
G1 F2050.1 X96.911 Y113.114 E24.33523
G1 F2127.7 X97.016 Y113.628 E24.35368
G1 F2211.3 X97.121 Y114.141 E24.3714
G1 F2307.7 X97.225 Y114.654 E24.38838
G1 F2406.4 X97.33 Y115.168 E24.40469
G1 F2514 X97.435 Y115.681 E24.42028
G1 F1751 X97.677 Y116.031 E24.43847
G1 X97.777 Y115.613 E24.45684
G1 F2514 X97.689 Y115.097 E24.47242
G1 F2406.4 X97.6 Y114.581 E24.4887
G1 F2307.7 X97.512 Y114.064 E24.50571
G1 F2211.3 X97.423 Y113.548 E24.52343
G1 F2127.7 X97.334 Y113.031 E24.54188
