;FLAVOR:Marlin
;TIME:1617
;Filament used: 1.97552m
;Layer height: 0.2
;MINX:88.6
;MINY:68.426
;MINZ:0.2
;MAXX:121.4
;MAXY:135.067
;MAXZ:18.2
;Generated with Cura_SteamEngine main
M140 S60
M105
M190 S60
M104 S200
M105
M109 S200
M82 ;absolute extrusion mode
G21 ;metric values
G90 ;absolute positioning
M82 ;set extruder to absolute mode
M107 ;start with the fan off
G28 X0 Y0 ;move X/Y to min endstops
G28 Z0 ;move Z to min endstops
G1 Z15.0 F100 ;move the platform down 15mm
G92 E0 ;zero the extruded length
G1 F200 E3 ;extrude 3mm of feed stock
G92 E0 ;zero the extruded length again
G1 F100
G0 Y20 F100
M117 Printing...
G5
G92 E0
G92 E0
G1 F2400 E-6
;LAYER_COUNT:91
;LAYER:0
M107
M204 S3000
M205 X10 Y10
G1 F600 Z0.275
G0 F3000 X96.651 Y72.617 Z0.275
M204 S1800
M205 X8 Y8
;TYPE:SKIRT
G1 F600 Z0.2
G1 F2400 E0
G1 X97.343 Y71.804 E0.04971
G1 X98.083 Y71.066 E0.09838
G1 X98.505 Y70.709 E0.12412
G1 X99.221 Y70.184 E0.16546
G1 X99.696 Y69.884 E0.19162
G1 X100.457 Y69.466 E0.23205
G1 X101.133 Y69.172 E0.26637
G1 X101.89 Y68.903 E0.30378
G1 X102.397 Y68.758 E0.32834
G1 X103.244 Y68.576 E0.36868
G1 X103.785 Y68.498 E0.39413
G1 X104.665 Y68.426 E0.43524
G1 X105.456 Y68.434 E0.47208
G1 X106.56 Y68.528 E0.52367
G1 X107.608 Y68.76 E0.57365
G1 X108.164 Y68.921 E0.6006
G1 X109.006 Y69.23 E0.64237
G1 X109.498 Y69.451 E0.66748
G1 X110.289 Y69.867 E0.7091
G1 X110.891 Y70.257 E0.7425
G1 X111.51 Y70.72 E0.77849
G1 X111.923 Y71.07 E0.8037
G1 X112.542 Y71.672 E0.8439
G1 X112.973 Y72.166 E0.87443
G1 X113.851 Y73.261 E0.93979
G1 X119.688 Y80.849 E1.38556
G1 X120.115 Y81.421 E1.4188
G1 X120.51 Y82.018 E1.45213
G1 X120.836 Y82.654 E1.48541
G1 X121.089 Y83.323 E1.51871
G1 X121.266 Y84.016 E1.55202
G1 X121.38 Y84.842 E1.59084
G1 X121.4 Y86.086 E1.64878
G1 X121.399 Y99.103 E2.2549
G1 X121.389 Y99.83 E2.28876
G1 X121.34 Y100.544 E2.32208
G1 X121.211 Y101.247 E2.35537
G1 X121.004 Y101.932 E2.38869
G1 X120.722 Y102.589 E2.42198
G1 X120.368 Y103.211 E2.4553
G1 X119.948 Y103.789 E2.48857
G1 X119.465 Y104.317 E2.52189
G1 X118.927 Y104.788 E2.55519
G1 X118.339 Y105.196 E2.58851
G1 X117.709 Y105.536 E2.62185
G1 X117.046 Y105.803 E2.65513
G1 X116.357 Y105.994 E2.68842
G1 X115.509 Y106.131 E2.72842
G1 X114.67 Y106.151 E2.7675
G1 X113.609 Y106.15 E2.8169
G1 X112.714 Y106.136 E2.85858
G1 X111.662 Y106.063 E2.90769
G1 X108.948 Y105.909 E3.03427
G1 X106.275 Y105.834 E3.15878
G1 X103.631 Y105.834 E3.2819
G1 X101.021 Y105.909 E3.40348
G1 X98.315 Y106.062 E3.52968
G1 X97.459 Y106.125 E3.56965
G1 X96.683 Y106.151 E3.6058
G1 X95.583 Y106.151 E3.65703
G1 X94.914 Y106.141 E3.68818
G1 X94.201 Y106.091 E3.72146
G1 X93.498 Y105.961 E3.75475
G1 X92.813 Y105.753 E3.78809
G1 X92.156 Y105.47 E3.8214
G1 X91.535 Y105.116 E3.85468
G1 X90.957 Y104.695 E3.88798
G1 X90.429 Y104.212 E3.9213
G1 X89.959 Y103.673 E3.9546
G1 X89.552 Y103.084 E3.98794
G1 X89.213 Y102.455 E4.02121
G1 X88.947 Y101.791 E4.05451
G1 X88.756 Y101.101 E4.08785
G1 X88.621 Y100.257 E4.12765
G1 X88.6 Y99.421 E4.16659
G1 X88.601 Y85.866 E4.79777
G1 X88.611 Y85.17 E4.83018
G1 X88.661 Y84.457 E4.86346
G1 X88.79 Y83.753 E4.89679
G1 X88.998 Y83.069 E4.93008
G1 X89.28 Y82.411 E4.96341
G1 X89.695 Y81.683 E5.00243
G1 X90.457 Y80.66 E5.06183
G1 X96.651 Y72.617 E5.53453
M204 S3000
M205 X10 Y10
G0 F3000 X97.096 Y72.957
M204 S1800
M205 X8 Y8
G1 F2400 X97.769 Y72.167 E5.58286
G1 X98.445 Y71.493 E5.62731
G1 X98.867 Y71.136 E5.65305
G1 X99.52 Y70.657 E5.69076
G1 X99.995 Y70.357 E5.71692
G1 X100.625 Y70.012 E5.75036
G1 X101.354 Y69.686 E5.78755
G1 X102.044 Y69.441 E5.82164
G1 X102.551 Y69.296 E5.8462
G1 X103.324 Y69.131 E5.883
G1 X103.865 Y69.053 E5.90845
G1 X104.677 Y68.986 E5.94639
G1 X105.446 Y68.994 E5.9822
G1 X106.473 Y69.081 E6.03019
G1 X107.452 Y69.297 E6.07688
G1 X108.008 Y69.458 E6.10383
G1 X108.777 Y69.741 E6.14199
G1 X109.269 Y69.962 E6.1671
G1 X109.917 Y70.303 E6.2012
G1 X110.583 Y70.725 E6.23791
G1 X111.148 Y71.148 E6.27078
G1 X111.561 Y71.498 E6.29598
G1 X112.126 Y72.046 E6.33263
G1 X112.537 Y72.516 E6.36171
G1 X113.332 Y73.506 E6.42083
G1 X119.239 Y81.184 E6.87191
G1 X119.666 Y81.756 E6.90515
G1 X120.042 Y82.327 E6.93698
G1 X120.349 Y82.937 E6.96878
G1 X120.582 Y83.58 E7.00063
G1 X120.739 Y84.245 E7.03245
G1 X120.825 Y85.152 E7.07487
G1 X120.84 Y86.086 E7.11837
G1 X120.839 Y99.095 E7.72412
G1 X120.829 Y99.822 E7.75797
G1 X120.78 Y100.504 E7.78981
G1 X120.652 Y101.175 E7.82162
G1 X120.445 Y101.826 E7.85343
G1 X120.165 Y102.449 E7.88523
G1 X119.813 Y103.035 E7.91707
G1 X119.396 Y103.576 E7.94887
G1 X118.918 Y104.064 E7.98068
G1 X118.386 Y104.493 E8.0125
G1 X117.808 Y104.857 E8.04431
G1 X117.191 Y105.151 E8.07613
G1 X116.544 Y105.371 E8.10795
G1 X115.876 Y105.514 E8.13976
G1 X115.03 Y105.591 E8.17932
G1 X113.618 Y105.59 E8.24507
G1 X112.722 Y105.576 E8.2868
G1 X111.657 Y105.501 E8.33651
G1 X108.96 Y105.349 E8.46229
G1 X106.291 Y105.274 E8.58662
G1 X103.65 Y105.274 E8.7096
G1 X100.973 Y105.351 E8.8343
G1 X98.244 Y105.505 E8.96158
G1 X96.999 Y105.591 E9.01969
G1 X95.592 Y105.591 E9.0852
G1 X94.923 Y105.581 E9.11636
G1 X94.241 Y105.531 E9.1482
G1 X93.57 Y105.402 E9.18002
G1 X92.919 Y105.195 E9.21183
G1 X92.297 Y104.913 E9.24363
G1 X91.711 Y104.561 E9.27546
G1 X91.171 Y104.143 E9.30726
G1 X90.683 Y103.664 E9.3391
G1 X90.255 Y103.132 E9.37089
G1 X89.891 Y102.554 E9.4027
G1 X89.598 Y101.937 E9.4345
G1 X89.379 Y101.29 E9.46631
G1 X89.237 Y100.621 E9.49815
G1 X89.173 Y99.924 E9.53074
G1 X89.16 Y99.421 E9.55417
G1 X89.161 Y85.874 E10.18498
G1 X89.171 Y85.178 E10.21739
G1 X89.22 Y84.497 E10.24918
G1 X89.349 Y83.826 E10.281
G1 X89.556 Y83.174 E10.31285
G1 X89.837 Y82.552 E10.34463
G1 X90.323 Y81.778 E10.38719
G1 X90.901 Y81.002 E10.43225
G1 X97.096 Y72.957 E10.90505
M204 S3000
M205 X10 Y10
G0 F3000 X97.446 Y73.421
M204 S1800
M205 X8 Y8
G1 F2400 X98.196 Y72.53 E10.95928
G1 X98.807 Y71.921 E10.99945
G1 X99.229 Y71.564 E11.02519
G1 X99.82 Y71.131 E11.0593
G1 X100.295 Y70.831 E11.08546
G1 X100.864 Y70.519 E11.11568
G1 X101.574 Y70.201 E11.15191
G1 X102.198 Y69.98 E11.18273
G1 X102.705 Y69.835 E11.20729
G1 X103.404 Y69.685 E11.24057
G1 X103.945 Y69.607 E11.26603
G1 X104.689 Y69.546 E11.30079
G1 X105.437 Y69.554 E11.33562
G1 X106.386 Y69.635 E11.37997
G1 X107.297 Y69.835 E11.4234
G1 X107.853 Y69.996 E11.45035
G1 X108.547 Y70.252 E11.4848
G1 X109.039 Y70.473 E11.50991
G1 X109.626 Y70.782 E11.5408
G1 X110.275 Y71.193 E11.57657
G1 X110.786 Y71.575 E11.60628
G1 X111.199 Y71.925 E11.63149
G1 X111.71 Y72.421 E11.66465
G1 X112.1 Y72.867 E11.69223
G1 X112.895 Y73.857 E11.75136
G1 X118.79 Y81.519 E12.20151
G1 X119.217 Y82.091 E12.23475
G1 X119.573 Y82.635 E12.26502
G1 X119.859 Y83.218 E12.29526
G1 X120.072 Y83.832 E12.32552
G1 X120.208 Y84.467 E12.35576
G1 X120.265 Y85.162 E12.38823
G1 X120.28 Y86.086 E12.43126
G1 X120.28 Y99.088 E13.03669
G1 X120.27 Y99.815 E13.07054
G1 X120.221 Y100.462 E13.10075
G1 X120.093 Y101.099 E13.13101
G1 X119.887 Y101.716 E13.1613
G1 X119.608 Y102.302 E13.19152
G1 X119.259 Y102.85 E13.22177
G1 X118.845 Y103.35 E13.252
G1 X118.372 Y103.796 E13.28227
G1 X117.849 Y104.181 E13.31251
G1 X117.282 Y104.499 E13.34278
G1 X116.681 Y104.744 E13.373
G1 X116.054 Y104.914 E13.40325
G1 X115.04 Y105.031 E13.45078
G1 X113.626 Y105.03 E13.51662
G1 X112.754 Y105.017 E13.55723
G1 X111.734 Y104.945 E13.60485
G1 X108.971 Y104.788 E13.73371
G1 X106.307 Y104.714 E13.8578
G1 X103.634 Y104.714 E13.98227
G1 X100.962 Y104.791 E14.10674
G1 X98.229 Y104.945 E14.2342
G1 X96.983 Y105.031 E14.29236
G1 X95.6 Y105.031 E14.35676
G1 X94.931 Y105.021 E14.38791
G1 X94.283 Y104.972 E14.41817
G1 X93.647 Y104.843 E14.44839
G1 X93.031 Y104.637 E14.47864
G1 X92.444 Y104.357 E14.50892
G1 X91.897 Y104.007 E14.53916
G1 X91.397 Y103.592 E14.56942
G1 X90.952 Y103.119 E14.59966
G1 X90.568 Y102.596 E14.62987
G1 X90.251 Y102.028 E14.66016
G1 X90.006 Y101.427 E14.69038
G1 X89.837 Y100.799 E14.72066
G1 X89.72 Y99.794 E14.76777
G1 X89.721 Y85.882 E15.41557
G1 X89.731 Y85.186 E15.44799
G1 X89.78 Y84.538 E15.47825
G1 X89.908 Y83.902 E15.50845
G1 X90.114 Y83.285 E15.53874
G1 X90.394 Y82.699 E15.56899
G1 X90.772 Y82.113 E15.60146
G1 X91.345 Y81.343 E15.64615
G1 X97.446 Y73.421 E16.11174
M204 S3000
M205 X10 Y10
G1 F2400 E10.11174
;MESH:?????????1.stl
G0 F3000 X101.691 Y75.529
G0 X102.501 Y76.248
G0 X105.368 Y76.172
G1 F2400 E16.11174
G0 F3000 X105.358 Y76.232
M204 S1800
M205 X8 Y8
;TYPE:WALL-INNER
G1 F1552.7 X105.937 Y76.342 E16.13826
G1 F1637.4 X106.436 Y76.529 E16.16099
G1 F1183.1 X106.861 Y76.498 E16.18614
G1 X106.646 Y76.087 E16.21353
G1 F1637.4 X106.095 Y75.835 E16.23937
G1 F1547 X105.661 Y75.721 E16.25963
G1 F1510.8 X105.225 Y75.662 E16.27997
G1 F1500 X104.779 Y75.661 E16.30074
G1 F1508.1 X104.339 Y75.721 E16.32131
G1 F1549.8 X103.924 Y75.829 E16.34063
G1 F1612.3 X103.499 Y76.006 E16.36058
G1 F1700.4 X103.092 Y76.243 E16.37993
G1 F1253.7 X102.911 Y76.654 E16.40494
G1 X103.358 Y76.635 E16.42987
G1 F1735.5 X103.551 Y76.535 E16.43862
G1 F1643.8 X104.064 Y76.342 E16.46191
G1 F1544.1 X104.751 Y76.224 E16.49344
G1 F1516.2 X105.358 Y76.232 E16.5214
M204 S3000
M205 X10 Y10
G0 F3000 X105.368 Y76.172
G0 X107.302 Y77.496
G0 X113.508 Y85.194
G0 X113.63 Y86.017
G0 X113.543 Y85.975
M204 S1800
M205 X8 Y8
G1 F1070.1 X113 Y86.251 E16.56116
G1 X113.543 Y86.527 E16.60092
G1 X114 Y87.251 E16.6568
G1 F1009.6 X114.047 Y86.751 E16.69155
G1 F1139.8 X114.095 Y86.251 E16.72233
G1 F1217.4 X114.095 Y85.601 E16.75962
G1 X114.095 Y85.559 E16.76203
G1 X113.789 Y85.156 E16.79106
G1 X113.851 Y85.559 E16.81446
G1 X113.543 Y85.975 E16.84415
M204 S3000
M205 X10 Y10
G0 F3000 X113.63 Y86.017
G0 X96.476 Y86.084
G0 X95.905 Y85.574
M204 S1800
M205 X8 Y8
G1 F1318.7 X95.905 Y86.251 E16.88001
G1 F1139.8 X95.952 Y86.751 E16.91079
G1 F1009.6 X96 Y87.251 E16.94554
G1 F1070.1 X96.457 Y86.527 E17.00142
G1 F1066 X96.912 Y86.251 E17.03629
G1 X96.456 Y85.975 E17.07122
G1 F1217.4 X96.147 Y85.561 E17.10086
G1 F1435.9 X96.29 Y84.879 E17.13475
G1 F1578.9 X95.905 Y85.574 E17.1699
M204 S3000
M205 X10 Y10
G0 F3000 X96.832 Y86.351
G0 X96.832 Y87.027
M204 S1800
M205 X8 Y8
;TYPE:WALL-OUTER
G1 F1500 X96.975 Y86.971 E17.17705
G1 X113 Y86.971 E17.92324
G1 X113.168 Y87.027 E17.93149
G1 X113.28 Y87.251 E17.94315
G1 X113.28 Y99.471 E18.51216
G1 X114.72 Y99.471 E18.57921
G1 X114.72 Y85.601 E19.22506
G1 X114.72 Y85.346 E19.23693
G1 X114.564 Y85.144 E19.24882
G1 F1242.6 X113.934 Y84.515 E19.29886
G1 F1056.6 X113.582 Y84.062 E19.33678
G1 F1237.1 X113.433 Y83.673 E19.3603
G1 F1500 X107.954 Y76.552 E19.77867
G1 X107.599 Y76.15 E19.80365
G1 F1502.7 X107.203 Y75.813 E19.82782
G1 X106.759 Y75.535 E19.85216
G1 F1500 X106.284 Y75.321 E19.87642
G1 X105.778 Y75.174 E19.90096
G1 X105.265 Y75.103 E19.92507
G1 X104.741 Y75.101 E19.94947
G1 X104.222 Y75.174 E19.97388
G1 X103.717 Y75.321 E19.99837
G1 X103.246 Y75.533 E20.02242
G1 X102.798 Y75.814 E20.04705
G1 X102.407 Y76.147 E20.07096
G1 X102.052 Y76.547 E20.09586
G1 X95.28 Y85.348 E20.61295
G1 X95.28 Y99.471 E21.27058
G1 X96.72 Y99.471 E21.33763
G1 X96.72 Y87.251 E21.90664
G1 X96.832 Y87.027 E21.91831
M204 S3000
M205 X10 Y10
G0 F3000 X96.975 Y86.971
G0 X97.022 Y86.971
G0 X97.022 Y86.351
G0 X96.492 Y85.194
G0 X102.325 Y77.891
G0 X103.139 Y77.159
G0 X104.168 Y76.715
G0 X105.28 Y76.623
G0 X106.358 Y76.892
G0 X107.108 Y77.348
G0 X109.871 Y79.979
G0 X112.611 Y84.316
M204 S1800
M205 X8 Y8
G1 F1237.1 X112.953 Y84.554 E21.94183
G1 F1056.6 X113.31 Y85.003 E21.97975
G1 F1242.6 X113.264 Y85.347 E21.99926
G1 F1500 X113.099 Y85.514 E22.01019
G1 X113 Y85.531 E22.01487
G1 X96.974 Y85.531 E22.7611
G1 X96.831 Y85.475 E22.76826
G1 X96.735 Y85.347 E22.77571
G1 X96.75 Y85.12 E22.7863
G1 X102.453 Y77.985 E23.21162
G1 X102.787 Y77.632 E23.23425
G1 X103.246 Y77.282 E23.26113
G1 X103.72 Y77.033 E23.28606
G1 X104.201 Y76.87 E23.30971
G1 X104.713 Y76.785 E23.33388
G1 X105.281 Y76.783 E23.36032
G1 X105.799 Y76.87 E23.38478
G1 X106.276 Y77.032 E23.40824
G1 X106.788 Y77.303 E23.43521
G1 X107.181 Y77.601 E23.45818
G1 X107.546 Y77.982 E23.48275
G1 X112.611 Y84.316 E23.86039
M204 S3000
M205 X10 Y10
G0 F3000 X112.775 Y84.43
G0 X113.019 Y83.991
M204 S1800
M205 X8 Y8
;TYPE:WALL-INNER
G1 F1714.3 X112.707 Y83.593 E23.88099
G1 F1680 X112.395 Y83.195 E23.90202
G1 F1650.3 X112.083 Y82.797 E23.92342
G1 F1621.6 X111.77 Y82.399 E23.94523
G1 F1590.9 X111.458 Y82.001 E23.96743
G1 F1564.2 X111.146 Y81.603 E23.99002
G1 F1538.5 X110.834 Y81.204 E24.01301
G1 F1510.8 X110.521 Y80.806 E24.03642
G1 F1486.7 X110.209 Y80.408 E24.06018
G1 F1460.9 X109.897 Y80.01 E24.08436
G1 F1438.4 X109.585 Y79.612 E24.10891
G1 F1416.5 X109.272 Y79.214 E24.13388
G1 F1393 X108.96 Y78.815 E24.15928
G1 F1372.5 X108.648 Y78.417 E24.18501
G1 F1352.7 X108.335 Y78.019 E24.21116
G1 F1331.2 X108.023 Y77.621 E24.23769
G1 F1268.9 X107.669 Y77.204 E24.2678
G1 F1082.5 X107.1 Y76.66 E24.31859
G1 F938.5 X106.861 Y76.498 E24.34008
M204 S3000
M205 X10 Y10
G0 F3000 X105.312 Y76.223
G0 X104.509 Y76.252
G0 X102.911 Y76.654
M204 S1800
M205 X8 Y8
G1 F1033.2 X102.561 Y76.969 E24.37191
G1 F1200 X102.018 Y77.573 E24.41919
G1 F1327 X101.705 Y77.972 E24.44588
G1 F1348.3 X101.391 Y78.372 E24.47222
G1 F1368.1 X101.077 Y78.771 E24.49814
G1 F1390.7 X100.764 Y79.171 E24.52365
G1 F1411.8 X100.45 Y79.57 E24.54877
G1 F1435.9 X100.136 Y79.97 E24.57351
G1 F1460.9 X99.823 Y80.37 E24.59779
G1 F1484.1 X99.509 Y80.769 E24.62169
G1 F1510.8 X99.195 Y81.169 E24.6452
G1 F1535.6 X98.881 Y81.568 E24.66829
G1 F1564.2 X98.568 Y81.968 E24.69097
G1 F1590.9 X98.254 Y82.367 E24.71326
G1 F1621.6 X97.94 Y82.767 E24.73516
G1 F1650.3 X97.627 Y83.167 E24.75666
G1 F1683.4 X97.313 Y83.566 E24.77773
G1 F1717.8 X96.999 Y83.966 E24.7984
G1 F1750 X96.685 Y84.365 E24.81867
G1 F1787.2 X96.372 Y84.765 E24.83852
G1 F1775.9 X96.29 Y84.879 E24.84404
M204 S3000
M205 X10 Y10
G0 F3000 X96.063 Y85.268
G0 X96.476 Y86.084
G0 X96.912 Y86.251
M204 S1800
M205 X8 Y8
G1 F949.2 X98.15 Y86.251 E24.93514
G1 X99.388 Y86.251 E25.02625
G1 F950.2 X100.626 Y86.251 E25.11725
G1 X101.864 Y86.251 E25.20824
G1 F951.3 X103.102 Y86.251 E25.29914
G1 X104.34 Y86.251 E25.39004
G1 X105.578 Y86.251 E25.48093
G1 F952.4 X106.816 Y86.251 E25.57173
G1 X108.054 Y86.251 E25.66252
G1 F953.5 X109.292 Y86.251 E25.75321
G1 X110.53 Y86.251 E25.8439
G1 F954.5 X111.768 Y86.251 E25.93449
G1 X113.006 Y86.251 E26.02507
M204 S3000
M205 X10 Y10
G0 F3000 X113.828 Y86.423
G0 X114 Y87.251
M204 S1800
M205 X8 Y8
G1 F954.5 X114 Y98.751 E26.86656
M204 S3000
M205 X10 Y10
G0 F3000 X113.828 Y86.423
G0 X96.172 Y86.423
G0 X96 Y98.751
M204 S1800
M205 X8 Y8
G1 F954.5 X96 Y87.251 E27.70804
M204 S3000
M205 X10 Y10
;MESH:NONMESH
G0 F600 X96 Y87.251 Z0.4
G0 F3000 X96 Y87.25
;TIME_ELAPSED:25.823204
;LAYER:1
M106 S127.5
M204 S1800
M205 X8 Y8
;TYPE:WALL-INNER
;MESH:?????????1.stl
G1 F2117.6 X96.385 Y86.43 E27.74005
G1 F2031.6 X96.642 Y86.296 E27.75073
G1 F2137.8 X96.912 Y86.25 E27.76031
G1 X96.642 Y86.204 E27.7699
G1 F2031.6 X96.384 Y86.07 E27.78061
G1 F2000 X96.034 Y85.601 E27.80251
G1 X96.035 Y85.587 E27.80303
G1 X96.025 Y85.601 E27.80368
G1 X96.025 Y86.25 E27.82796
G1 F2059.5 X96.013 Y86.75 E27.84613
G1 F2184.5 X96 Y87.25 E27.86327
M204 S3000
M205 X10 Y10
G0 F4500 X96.172 Y86.422
G0 X113.615 Y86.07
M204 S1800
M205 X8 Y8
G1 F2008.9 X113.36 Y86.208 E27.87407
G1 F2127.7 X113 Y86.25 E27.88682
G1 X113.36 Y86.292 E27.89957
G1 F2008.9 X113.615 Y86.43 E27.91037
G1 F2117.6 X114 Y87.25 E27.94238
G1 F2184.5 X113.988 Y86.75 E27.95951
G1 F2059.5 X113.975 Y86.25 E27.97769
G1 F2000 X113.975 Y85.6 E28.00201
G1 X113.969 Y85.591 E28.00241
G1 X113.615 Y86.07 E28.0247
M204 S3000
M205 X10 Y10
G0 F4500 X96.64 Y86.35
G0 X96.64 Y86.77
M204 S1800
M205 X8 Y8
G1 F2250 X96.947 Y86.651 E28.03565
G1 X113 Y86.65 E28.56958
G1 X113.211 Y86.688 E28.57671
G1 X113.36 Y86.77 E28.58236
G1 X113.6 Y87.25 E28.60021
G1 X113.6 Y134.651 E30.17678
G1 X114.4 Y134.651 E30.20339
G1 X114.4 Y85.6 E31.83483
G1 X114.4 Y85.454 E31.83968
G1 F2261.3 X114.093 Y85.05 E31.85648
G1 F2284.3 X113.786 Y84.645 E31.87313
G1 X113.477 Y84.247 E31.88963
G1 F2255.6 X113.167 Y83.848 E31.9064
G1 F2227.7 X112.857 Y83.449 E31.92337
G1 F2205.9 X112.547 Y83.051 E31.94049
G1 F2179.2 X112.237 Y82.652 E31.95784
G1 F2153.1 X111.927 Y82.253 E31.9754
